!!!!SEGMENT: pl-wn--mus-iii-66-276_zelenski-wladyslaw--valse-caprice-op-9.krn
!!!cenid: 18xx:3673
!!!COM: Żeleński, Władysław
!!!COM-rismid: pe41024455
!!!CDT:
!!!CNT:
!!!OTL: Valse-caprice op. 9
!!!PDT:
!!!AGN:
!!!SMS-siglum: PL-Wn
!!!SMS-shelfmark: Mus.III.66.276
!!!SMS-shelfwork: W
!!!SMS-variant:
!!!SMS-altvar:
!!!NIFC-rismid:
!!!URL-scan: https://polona.pl/item/valse-caprice-pour-pianoforte-op-9,Njk4OTY2NzA/0/#info:metadata
!!!ONB-nifc:
!!!OMD: Andantino
!!!key: D-
**kern	**kern	**fing	**dynam
*part1	*part1	*part1	*part1
*staff2	*staff1	*staff1	*
*>[A,A,B,B,C,C,D]	*>[A,A,B,B,C,C,D]	*>[A,A,B,B,C,C,D]	*>[A,A,B,B,C,C,D]
*>A	*>A	*>A	*>A
*I"INTRODUCTION.	*I"INTRODUCTION.	*	*
*Ipiano	*Ipiano	*	*
*ICklav	*ICklav	*	*
*clefF4	*clefG2	*	*
*kcancel	*kcancel	*	*
*k[b-e-a-d-g-]	*k[b-e-a-d-g-]	*	*
*D-:	*D-:	*	*
*M3/4	*M3/4	*	*
!	!	!	!LO:DY:b=2
8AA- 8AAA-/	8r	.	pp
=1	=1	=1	=1
([2.D- [2.DD-/	2.r	.	.
=2	=2	=2	=2
4D-] 4DD-/]	2.r	.	.
4C 4CC/	.	.	.
4D- 4DD-/)	.	.	.
=3	=3	=3	=3
([2.F [2.FF/	2.r	.	.
=4	=4	=4	=4
4F] 4FF/]	2.r	.	.
4E- 4EE-/	.	.	.
[4D- [4DD-/)	.	.	.
=5	=5	=5	=5
!	!	!	!LO:HP:b=2
(4D-] 4DD-/]	[2.a- [>2.e- [2.A-^/	.	<
4C 4CC/	.	.	.
4E- 4EE-/	.	.	.
=6	=6	=6	=6
8G- 8GG-/)	8a-]L 8e-] 8A-/]	.	[ <
8r	(8B-/	.	.
4r	8c/	.	.
.	8d-/	.	.
4r	8e-/	.	.
.	8f/J)	.	[[
!!LO:LB:g=original
=7	=7	=7	=7
.	8qqg-/	.	.
2.r	8f/L	.	.
!	!	!	!LO:HP:t=rallent e diminuendo
.	8e-/	.	>
.	8dn/	.	.
.	8e-/	.	.
.	8f/	.	.
.	8g-/J	.	.
=8	=8	=8	=8
2.r	8gn/L	.	.
.	8a-/	.	.
.	8cc/	.	.
.	8b-/	.	.
.	8a-/	.	.
.	8g/J	.	.
=9	=9	=9	=9
!!!OMD: a tempo.
*ped	*	*	*
!	!LO:TX:b:i:t=Cantabile	!	!
8D-\L	([>2.a-/	.	.
8A-\	.	.	.
8d-\	.	.	.
8f\	.	.	.
8d-\	.	.	.
*Xped	*	*	*
8A-\J	.	.	.
=10	=10	=10	=10
8D-\L	4a-/]	.	.
8A-\	.	.	.
8d-\	4gn/	.	.
8f\	.	.	.
8d-\	4a-/)	.	.
8A-\J	.	.	.
=11	=11	=11	=11
*ped	*	*	*
8C-X\L	([2.dd-\	.	.
8F\	.	.	.
8A-\	.	.	.
8d-\	.	.	.
8A-\	.	.	.
*Xped	*	*	*
8F\J	.	.	.
=12	=12	=12	=12
8C-X\L	4dd-\]	.	.
8F\	.	.	.
8A-\	4cc\	.	.
8d-\	.	.	.
8A-\	4dd-\)	.	.
8F\J	.	.	.
!!LO:LB:g=original
=13	=13	=13	=13
*ped	*	*	*
8BB-\L	([2.ee-\	.	.
8E-\	.	.	.
8Gn\	.	.	.
8d-\	.	.	.
8G\	.	.	.
*Xped	*	*	*
8E-\J	.	.	.
=14	=14	=14	=14
8BB--\L	4ee-\]	.	.
8E-\	.	.	.
8G-X\	4ff\	.	.
8d-\	.	.	.
8G-\	4ee-\)	.	.
8E-\J	.	.	.
=15	=15	=15	=15
*ped	*	*	*
!LO:TX:t=P:problem=mixed beam	!	!	!
8AA-/L	([2.aa-\	.	.
8E-/	.	.	.
8G-/	.	.	.
8d-/	.	.	.
8e->\	.	.	.
8g->\J	.	.	.
=16	=16	=16	=16
!LO:TX:t=P:problem=mixed beam	!	!	!
8dd->\L	4aa-/]	.	.
8g->\	.	.	.
*Xped	*	*	*
8e->\	4cc/	.	.
*ped	*	*	*
8c/	.	.	.
8G-/	4gg-/)	.	.
*Xped	*	*	*
8E-/J	.	.	.
=17	=17	=17	=17
*ped	*	*	*
8D-\L	(>[>2.ff/	.	.
8A-\	.	.	.
8d-\	.	.	.
8a->\	.	.	.
8d-\	.	.	.
8A-\J	.	.	.
=18	=18	=18	=18
8F\L	4ff/]	.	.
8A-\	.	.	.
8d-\	4dd-/	.	.
8a->\	.	.	.
8d-\	4aa-/)	.	.
*Xped	*	*	*
8A-\J	.	.	.
!!LO:LB:g=original
=19	=19	=19	=19
*ped	*	*	*
8BB-\L	[2.ddd- [2.dd-/	.	.
8F\	.	.	.
8B-\	.	.	.
8f>\	.	.	.
8B-\	.	.	.
8F\J	.	.	.
=20	=20	=20	=20
8BB-\L	4ddd-] 4dd-\]	.	.
*Xped	*	*	*
8d-\	.	.	.
8B-\	(4gg- 4g-\	.	.
8d-\	.	.	.
8A-\	4ff 4f\)	.	.
8d-\J	.	.	.
=21	=21	=21	=21
4G-\	8ddn\L	.	.
.	8ee-\J	.	.
!	!LO:TX:b:i:t=espress.	!	!
(4g- 4B-\	[2bb-^^\	.	.
4f 4A-\	.	.	.
=22	=22	=22	=22
4e- 4G-\)	8bb-\L]	.	.
.	8ff\	.	.
4r	8aa-\	.	.
.	8gg-\	.	.
4r	8ee-\	.	.
.	8dd-\J	.	.
=23	=23	=23	=23
4r	8dd-\L	.	.
.	8cc\J	.	.
(4c 4A-\	[2aa-\	.	pp
4d- 4B-\	.	.	.
=24	=24	=24	=24
2e- 2c;\)	8aa-\L]	.	.
.	8ff\	.	.
!	!LO:TX:b:i:t=rallent.	!	!
.	8gg-\	.	.
.	8ee-\	.	.
4r	8cc\	.	.
.	8b-;\J	.	.
!!LO:PB:g=original
=25	=25	=25	=25
!!!OMD: Tempo de Valse
*M3/4	*M3/4	*	*
*ped	*	*	*
.	(<8qaa-/	.	.
4D- 4DD-/	[2.a-^/)	.	p
4f 4A-\	.	.	.
4f 4A-\	.	.	.
=26	=26	=26	=26
*^	*	*	*
!LO:N:vis=2	!	!	!	!
4D-/	2.D-\	8a-\L]	.	.
.	.	8b-\	.	.
4f 4A-/	.	8cc\	.	.
.	.	8dd-\	.	.
4f 4A-/	.	8ee-\	.	.
*Xped	*	*	*	*
.	.	8ff\J	.	.
=27	=27	=27	=27	=27
*ped	*	*	*	*
!LO:N:vis=2	!	!	!	!
4E-/	2.E-\	(8ff\L	.	.
.	.	8ee-\J	.	.
4g- 4c 4A-/	.	4aa-'\)	.	.
4g- 4c 4A-/	.	(4gg-'\	.	.
=28	=28	=28	=28	=28
!LO:N:vis=2	!	!	!	!
4E-/	2.E-\	4ee-'\	.	.
4g- 4c 4A-/	.	4cc'\	.	.
*Xped	*	*	*	*
4g- 4c 4A-/	.	4b-'\)	.	.
=29	=29	=29	=29	=29
*ped	*	*	*	*
!LO:N:vis=2	!	!	!	!
4F/	2.F\	2a-/	.	.
4d- 4A-/	.	.	.	.
*Xped	*	*	*	*
4d- 4A-/	.	([4ff\	.	.
=30	=30	=30	=30	=30
(4d-/	2.G-\	4ff\]	.	.
4e-/	.	4ee-\	.	<
4f/)	.	4dd-\)	.	.
=31	=31	=31	=31	=31
*	*	*^	*	*
!	!LO:N:vis=2.	!	!	!	!
4e-/	2A-\	4ryy	8dd-\L	.	.
.	.	.	[<8cc\J	.	.
[2g-/	.	[2bb-/	4cc\]	.	.
.	4B-\	.	4dd-\	.	.
=32	=32	=32	=32	=32	=32
4g-/]	2c\	4bb-/]	2.ee-\	.	.
4e-/	.	4aa-/	.	.	.
[4a-/	4ryy	4gg-/	.	.	[
!!LO:LB:g=original
=33	=33	=33	=33	=33	=33
2a-/]	4d-\	2ff/	4dd-\	.	.
!	!	!	!	!	!LO:DY:t=piu f
.	4dn\	.	4cc-X\	.	f
4g-/	4e-\	[4gg-/	4b-\	.	.
=34	=34	=34	=34	=34	=34
4dn/	2.G-\	4gg-/]	2b-\	.	.
4e-/	.	4b-/	.	.	.
4g-/	.	4ee-/	4b--\	.	.
=35	=35	=35	=35	=35	=35
*ped	*	*	*	*	*
8f/L	2A-\	4dd-/	[2.a-\	.	.
8e-/	.	.	.	.	.
8g-/	.	4cc/	.	.	.
8e-/	.	.	.	.	.
8c/	4ryy	4ee-/	.	.	.
8A-/J	.	.	.	.	.
*v	*v	*	*	*	*
=36	=36	=36	=36	=36
(8G-/L	2.aa-/	2.a-\]	.	.
8E-/	.	.	.	.
8C/	.	.	.	.
8AA-/	.	.	.	.
8GG-/	.	.	.	.
*Xped	*	*	*	*
8EE-/J)	.	.	.	.
*	*v	*v	*	*
=37	=37	=37	=37
*ped	*	*	*
.	(<8qaa-/	.	.
4D- 4DD-/	[2.a-/)	.	f
4f 4A-\	.	.	.
4f 4A-\	.	.	.
=38	=38	=38	=38
*^	*	*	*
!LO:N:vis=2	!	!	!	!
4D-/	2.D-\	8a-\L]	.	.
.	.	8b-\	.	.
4f 4A-/	.	8cc\	.	.
.	.	8dd-\	.	.
4f 4A-/	.	8ee-\	.	.
*Xped	*	*	*	*
.	.	8ff\J	.	.
=39	=39	=39	=39	=39
*ped	*	*	*	*
!LO:N:vis=2	!	!LO:TX:b:i:t=legier	!	!
4E-/	2.E-\	(8ff\L	.	.
.	.	8ee-\J	.	.
4g- 4c 4A-/	.	4aa-'\)	.	.
4g- 4c 4A-/	.	(4gg-'\	.	.
=40	=40	=40	=40	=40
!LO:N:vis=2	!	!	!	!
4E-/	2.E-\	4ee-'\	.	.
4g- 4c 4A-/	.	4cc'\	.	.
*Xped	*	*	*	*
4g- 4c 4A-/	.	4b-'\)	.	.
=41	=41	=41	=41	=41
*ped	*	*	*	*
!LO:N:vis=2	!	!	!	!
4F/	2.F\	2a-/	.	.
4d- 4A-/	.	.	.	.
*Xped	*	*	*	*
!	!	!LO:TX:b:i:t=sonore	!	!
4d- 4A-/	.	([4fff [4ff\	.	.
!!LO:LB:g=original
=42	=42	=42	=42	=42
!	!	!LO:TX:a:t=P:problem=brak zakończenia ligatur	!	!
4d-/	2.Gn\	4fff] 4ff\]	.	.
4e-/	.	4.eee- 4.ee-\	.	.
4en/	.	.	.	.
.	.	8ddd- 8dd-\)	.	.
=43	=43	=43	=43	=43
*	*	*^	*	*
(<4f/	4A-\	[2.ddd-/	4dd-\	.	.
4a->\	2ryy	.	2ryy	.	<
4cc>\	.	.	.	.	.
*	*	*v	*v	*	*
*v	*v	*	*	*
=44	=44	=44	=44
4dd->\	4ddd-/]	.	.
4ee->\	4ccc/	.	.
4een>\)	4bb-/	.	[
=45	=45	=45	=45
*	*^	*	*
4ff>\	4aa-/	4ryy	.	.
4a- 4dn\	4ff/	4cc-X\	.	f
4g- 4e-\	[4gg-/	[4b-\	.	.
=46	=46	=46	=46	=46
*^	*	*	*	*
4dn/	2.G-\	4gg-/]	2b-\]	.	.
4e-/	.	4b-/	.	.	.
4g-/	.	4ee-/	4b--\	.	.
=47	=47	=47	=47	=47	=47
*ped	*	*	*	*	*
8f/L	2A-\	4dd-/	2a-\	.	.
8e-/	.	.	.	.	.
8g-/	.	4cc/	.	.	.
8e-/	.	.	.	.	.
8c/	4ryy	4aa-/	4ee- 4g-\	.	.
*Xped	*	*	*	*	*
8A-/J	.	.	.	.	.
*v	*v	*	*	*	*
*	*v	*v	*	*
=48	=48	=48	=48
4D-\	4dd- 4f/	.	.
4r	4r	.	.
4r	4r	.	.
=49:|!|:	=49:|!|:	=49:|!|:	=49:|!|:
*>B	*>B	*>B	*>B
*	*^	*	*
*ped	*	*	*	*
2.d- [2.G-\	[2.dd-/	[2.b--\	.	f
=50	=50	=50	=50	=50
2.g- 2.G-\]	8dd-/L]	2.b--\]	.	.
.	8ee-/	.	.	.
.	8ff/	.	.	.
.	8gg-/	.	.	.
.	8ff/	.	.	.
*Xped	*	*	*	*
.	8ee-/J	.	.	.
*	*v	*v	*	*
=51	=51	=51	=51
(4e- 4G-\	[2.aa- [2.a-\	.	.
4d- 4F\	.	.	.
4c 4E-\)	.	.	.
!!LO:LB:g=original
=52	=52	=52	=52
4d- 4F\	4aa-] 4a-\]	.	.
4r	4r	.	.
4r	4aa-\	.	.
=53	=53	=53	=53
*^	*^	*	*
*ped	*	*	*	*	*
2.d-/	[2.G-\	[2.dd-/	[2.b--\	.	pp
=54	=54	=54	=54	=54	=54
2.g-/	2.G-\]	8dd-/L]	2.b--\]	.	.
.	.	8ee-/	.	.	.
*Xped	*	*	*	*	*
.	.	8ff-X/	.	.	.
.	.	8gg-/	.	.	.
.	.	8ff-/	.	.	.
.	.	8ee-/J	.	.	.
*v	*v	*	*	*	*
*	*v	*v	*	*
=55	=55	=55	=55
(4e- 4G-\	[2.aa- [2.a-\	.	.
4d- 4F-X\	.	.	.
4c 4E-\	.	.	.
=56	=56	=56	=56
4d- 4F-X\)	4aa-] 4a-\]	.	.
4r	4r	.	.
4r	4aa-\	.	.
=57||	=57||	=57||	=57||
!!!key: c#
*k[f#c#g#d#]	*k[f#c#g#d#]	*	*
*^	*^	*	*
2.c#/	[2.F#\	[2.cc#/	[2.a\	.	f
=58	=58	=58	=58	=58	=58
[2.f#/	2.F#\]	8cc#/L]	2.a\]	.	.
.	.	8cc#/	.	.	.
.	.	8dd#/	.	.	.
.	.	8ee/	.	.	.
.	.	8dd#/	.	.	.
.	.	8cc#/J	.	.	.
*	*	*v	*v	*	*
=59	=59	=59	=59	=59
!	!	!LO:TX:b:i:t=con forza e ben marc.	!	!
8f#/]	8F#\L	[2.ff# 2.a\	.	.
8ryy	8D#\	.	.	.
4ryy	8E\	.	.	.
.	8F#\	.	.	.
4ryy	8E\	.	.	.
.	8D#\J	.	.	.
*v	*v	*	*	*
=60	=60	=60	=60
*	*^	*	*
8C#/L	2.ff#/]	2a\	.	.
8BB#X/	.	.	.	.
8C#/	.	.	.	.
8D#/	.	.	.	.
8C#/	.	[4g#\	.	.
8BB#/J	.	.	.	.
!!LO:LB:g=original
=61	=61	=61	=61	=61
*Xped	*	*	*	*
2c#\	[2.ee/	8g#\L]	.	.
.	.	8g#\	.	.
.	.	8a\	.	.
.	.	8b\	.	.
4B\	.	8a\	.	.
.	.	8g#\J	.	.
=62	=62	=62	=62	=62
[2.A\	8ee/L]	[2.f#\	.	.
.	8dd#/	.	.	.
.	8ee/	.	.	.
.	8ff#/	.	.	.
.	8ee/	.	.	.
.	8dd#/J	.	.	.
=63	=63	=63	=63	=63
8A\L]	2.cc#/	4f#\]	.	.
8G#\	.	.	.	.
8A\	.	4e\	.	.
8B\	.	.	.	.
8A\	.	[4dn\	.	.
8G#\J	.	.	.	.
=64	=64	=64	=64	=64
8F#\L	2.b/	4d\]	4	.
8E#X\	.	.	.	.
*	*	*	*below	*
8F#\	.	4c#\	1	.
8G#\	.	.	.	.
8F#\	.	[4g#\	.	.
8E#\J	.	.	.	.
=65	=65	=65	=65	=65
4F#\	4a/	8g#\L]	.	.
.	.	8f#\	.	.
4E#X\	[2cc#/	8g#\	.	.
.	.	8b\	.	.
4En\	.	8a\	.	.
.	.	8g#\J	.	.
=66	=66	=66	=66	=66
*	*	*	*Xbelow	*
2.A\	8cc#/L]	2.f#\	5	.
.	8cc#/	.	3	.
.	8dd#/	.	4	.
.	8ee/	.	5	.
.	8dd#/	.	4	.
.	8cc#/J	.	3	.
=67	=67	=67	=67	=67
[2.G#\	2.b#X/	8f#\L	5	.
.	.	8f#\	.	.
.	.	8g#\	.	.
.	.	8a\	.	.
.	.	8g#\	.	.
.	.	[8f#\J	.	.
=68	=68	=68	=68	=68
8G#\L]	[2.dd#/	2.f#\_	3	.
8BB#X\	.	.	5	.
8C#\	.	.	.	.
8D#\	.	.	.	.
8C#\	.	.	.	.
[8BB#\J	.	.	.	.
=69	=69	=69	=69	=69
(2.B 2.BB#\_	8dd#/L]	4f#\]	.	.
.	8ff#/	.	3	.
.	8gg#/	4r	4	.
.	8aa/	.	5	.
.	8ff#/	4r	3	.
.	8ee/J	.	1	.
*	*v	*v	*	*
!!LO:PB:g=original
=70	=70	=70	=70
2.A 2.BB#;\])	2.dd#;\	.	.
*cue	*cue	*	*
*Xtuplet	*Xtuplet	*	*
12ryy	12r	.	.
!	!LO:TX:b:i:t=cadenza	!	!
12ff#>\L	12ddd#/L	.	.
12dd#>\	12bb#X/	.	.
12cc#>\	12aa#X/	.	.
12b#X>\	12gg#/	.	.
12ff#>\J	12ddd#/J	.	.
12dd#>\L	12bb#/L	.	.
12cc#>\	12aa#/	.	.
12b#>\	12gg#/	.	.
!	!LO:TX:b:i:t=veloce legatissimo _ ritenuto:dur=13q:ext=ud:problem=text with extention lines	!	!
12ff#>\	12ddd#/	.	.
12dd#>\	12bb#/	.	.
12cc#>\J	12aa#/J	.	.
12b#>\L	12gg#/L	.	.
12ddn>\	12bbn/	.	.
12bn>\	12gg#/	.	.
12a#X>\	12ff#/	.	.
12g#>\	12ee#X/	.	.
12dd>\J	12bb/J	.	.
12b>\L	12gg#/L	.	.
12a#>\	12ff#/	.	.
12g#>\	12ee#/	.	.
12dd>\	12bb/	.	.
12b>\	12gg#/	.	.
12a#>\J	12ff#/J	.	.
12g#>\L	12ee#X/L	.	.
12cc#>\	12aan/	.	.
12an>\	12ff#/	.	.
12g#>\	12ee#/	.	.
12f#>\	12dd#/	.	.
12cc#>\J	12aa/J	.	.
12a>\L	12ff#/L	.	.
12g#>\	12ee#/	.	.
12f#>\	12dd#/	.	.
12a>\	12ff#/	.	.
12f#>\	12dd#/	.	.
12e#X>\J	12cc#/J	.	.
12d#>\L	12b#X/L	.	.
12a>\	12ff#/	.	.
12f#>\	12dd#/	.	.
12e#>\	12cc#/	.	.
12d#>\	12b#/	.	.
12a>\J	12ff#/J	.	.
12f#>\L	12dd#/L	.	.
12e#>\	12cc#/	.	.
12d#>\	12b#/	.	.
12a>\	12ff#/	.	.
12f#>\	12dd#/	.	.
12f##X>\J	12cc#/J	.	.
*Xcue	*Xcue	*	*
!!LO:LB:g=original
=71	=71	=71	=71
.	8qb#X/	.	.
[2.g#>\	[2.gg#/	.	.
=72	=72	=72	=72
4g#>\]	2.gg#;/]	.	.
4re>	.	.	.
4re>	.	.	.
=73||	=73||	=73||	=73||
!!!OMD: a tempo
!!!key: D-
*k[b-e-a-d-g-]	*k[b-e-a-d-g-]	*	*
*ped	*	*	*
.	(<8qaa-/	.	.
4D- 4DD-/	[2.a-/)	.	f
4f 4A-\	.	.	.
4f 4A-\	.	.	.
=74	=74	=74	=74
*^	*	*	*
!LO:N:vis=2	!	!	!	!
4D-/	2.D-\	8a-\L]	.	.
.	.	8b-\	.	.
4f 4A-/	.	8cc\	.	.
.	.	8dd-\	.	.
4f 4A-/	.	8ee-\	.	.
*Xped	*	*	*	*
.	.	8ff\J	.	.
=75	=75	=75	=75	=75
*ped	*	*	*	*
!LO:N:vis=2	!	!	!	!
4E-/	2.E-\	(8ff\L	.	.
!	!	!LO:TX:b:i:t=legierro	!	!
.	.	8ee-\J	.	.
4g- 4c 4A-/	.	4aa-'\)	.	.
4g- 4c 4A-/	.	(4gg-'\	.	.
=76	=76	=76	=76	=76
!LO:N:vis=2	!	!	!	!
4E-/	2.E-\	4ee-'\	.	.
4g- 4c 4A-/	.	4cc'\	.	.
*Xped	*	*	*	*
4g- 4c 4A-/	.	4b-'\)	.	.
=77	=77	=77	=77	=77
*ped	*	*	*	*
!LO:N:vis=2	!	!	!	!
4F/	2.F\	2a-/	.	.
4d- 4A-/	.	.	.	.
*Xped	*	*	*	*
4d- 4A-/	.	([4fff [4ff\	.	.
!!LO:LB:g=original
=78	=78	=78	=78	=78
4d-/	2.Gn\	4fff] 4ff\]	.	.
4e-/	.	4.eee- 4.ee-\	.	.
4en/	.	.	.	.
.	.	8ddd- 8dd-\)	.	.
=79	=79	=79	=79	=79
*	*	*^	*	*
!	!	!LO:N:vis=2	!	!	!
(<4f/	4A-\	[2.ddd-/	4dd-\	.	.
4a->\	4ryy	.	2ryy	.	<
4cc>\	4ryy	.	.	.	.
*	*	*v	*v	*	*
*v	*v	*	*	*
=80	=80	=80	=80
4dd->\	(4ddd-/]	.	.
4ee->\	4ccc/	.	.
4een>\)	4bb-/)	.	[
=81	=81	=81	=81
*	*^	*	*
4ryy	4aa-/	4ff\	.	.
4a- 4dn\	4ff/	4cc-X\	.	f
4g- 4e-\	[4gg-/	[4b-\	.	.
=82	=82	=82	=82	=82
*^	*	*	*	*
4dn/	2.G-\	4gg-/]	2b-\]	.	.
4e-/	.	4b-/	.	.	.
4g-/	.	4ee-/	4b--\	.	.
=83	=83	=83	=83	=83	=83
*ped	*	*	*	*	*
8f/L	2A-\	4dd-/	2a-\	.	.
8e-/	.	.	.	.	.
8g-/	.	4cc/	.	.	.
8e-/	.	.	.	.	.
8c/	4ryy	4aa-/	4ee- 4g-\	.	.
*Xped	*	*	*	*	*
8A-/J	.	.	.	.	.
*v	*v	*	*	*	*
*	*v	*v	*	*
=84	=84	=84	=84
4D-\	4dd- 4f/	.	.
4r	4r	.	.
4r	4r	.	.
!!LO:LB:g=original
=85:|!	=85:|!	=85:|!	=85:|!
!!!OMD: Trio a capriccio.
!!!key: c#
*>C	*>C	*>C	*>C
*k[f#c#g#d#]	*k[f#c#g#d#]	*	*
*M3/4	*M3/4	*	*
*	*	*	*^
!	!	!	!LO:DY:rj	!LO:DY:b=2:rj
2.C# 2.CC#\	2.G#< 2.E</	.	p	p
*	*	*	*v	*v
=86	=86	=86	=86
2.C# 2.EE\	2.c#< 2.G#</	.	.
=87	=87	=87	=87
2.C# 2.FF#\	2.d#< 2.A</	.	<
=88	=88	=88	=88
2.C# 2.GG#\	2.e#X< 2.B</	.	[[
=89	=89	=89	=89
*^	*	*	*
2.f# [<2.c#/	[>2.C# [2.AA\	2.ryy	.	.
=90	=90	=90	=90	=90
2.c#/_<	2.C#_> 2.AA\_	[2.cc#\	.	.
=91	=91	=91	=91	=91
4c#/]	4C#] 4AA\]	4cc#\]	.	.
!	!	!LO:TX:b:i:t=piu lento	!	!
4r	4ryy	(4b#X\	.	pp
4r	4ryy	4cc#\	.	.
*v	*v	*	*	*
=92	=92	=92	=92
4r	4ff#\	.	.
4r	4dd#\	.	.
(8f#\L	4cc#\)	.	.
8A\J	.	.	.
=93	=93	=93	=93
*ped	*	*	*
8G#'^^\)	8r	.	.
8r	(8b#X\L	.	.
4r	8cc#\	.	.
.	8b#\J	.	.
(8f#\L	8gg#'^^\)	.	.
*Xped	*	*	*
8G#\J	8r	.	.
=94	=94	=94	=94
*ped	*	*	*
8C#'>^^/)	8r	.	.
8r	(8bn\L	.	.
4r	8cc#\	.	.
.	8b\J	.	.
(8e#X\L	8gg#'^^\)	.	.
*Xped	*	*	*
8G#\J	8r	.	.
!!LO:LB:g=original
=95	=95	=95	=95
*ped	*	*	*
!LO:TX:a:t=P:problem=brak zakończenia łuku	!	!	!
8C#^^</)	8r	.	.
8r	(8a#X/L	.	.
4r	8b/	.	.
.	8a#/J	.	.
(8en\L	8ff#'^^\)	.	.
*Xped	*	*	*
8c#\J	8r	.	.
=96	=96	=96	=96
*ped	*	*	*
8F#'^^\)	8r	.	.
8r	(8a#X/L	.	.
4r	8b/	.	.
.	8a#/J	.	.
(8e\L	8ff#'^^\)	.	.
*Xped	*	*	*
8c#\J	8r	.	.
=97	=97	=97	=97
*ped	*	*	*
8F##X'^^\)	8r	.	.
8r	(8a#X/L	.	.
4r	8b/	.	.
.	8a#/J	.	.
!	!	!	!LO:HP:t=crescendo poco a poco.
(8e\L	8ee'^^\)	.	<
*Xped	*	*	*
8c#\J	8r	.	.
=98	=98	=98	=98
*ped	*	*	*
8G#'^^\)	8r	.	.
8r	(8g#/L	.	.
4r	8a#X/	.	.
.	8g#/J	.	.
(8e\L	8ee'^^\)	.	.
*Xped	*	*	*
8c#\J	8r	.	.
=99	=99	=99	=99
*ped	*	*	*
8A'^^\)	8r	.	.
8r	(8f#/L	.	.
4r	8g#/	.	.
.	8f#/J	.	.
(8d#\L	8ff#'^^\)	.	.
*Xped	*	*	*
8c#\J	8r	.	.
=100	=100	=100	=100
*ped	*	*	*
8F#'^^\)	8r	.	.
8r	(8a/L	.	.
4r	8b/	.	.
.	8a/J	.	.
(8d#\L	8aa'^^\)	.	.
*Xped	*	*	*
8c#\J)	8r	.	.
!!LO:PB:g=original
=101	=101	=101	=101
8r	[2.gg# [2.ff#\	.	f
8GG#/L	.	.	.
8AA#X/	.	.	.
8BB#X/	.	.	.
8C#/	.	.	.
8D#/J	.	.	.
=102	=102	=102	=102
*	*^	*	*
8E\L	2.gg#/]	4ff#\]	.	.
8F#\	.	.	.	.
8G#\	.	4dd#\	.	.
8A#X\	.	.	.	.
8B#X\	.	[4ee\	.	.
8c#\J	.	.	.	.
=103	=103	=103	=103	=103
!	!LO:N:vis=2.	!LO:N:vis=2.	!	!LO:HP:t=diminuendo.
8d#\L	2ff#/	2ee\]	.	>
8f#\	.	.	.	.
8an\	.	.	.	.
8g#\	.	.	.	.
*	*	*	*below	*
8f#\	[4aa/	8dd#\L	3	.
8e\J	.	8cc#\J	2	.
=104	=104	=104	=104	=104
2d#\	8aa/L]	2.b#X\	1	.
.	8gg#/	.	.	.
.	8ff##X/	.	.	.
.	8gg#/	.	.	.
4G#\	8ddd#/	.	.	.
!	!LO:N:acc=n#	!	!	!
.	8ff#X/J	.	.	.
*	*v	*v	*	*
=105	=105	=105	=105
*^	*	*	*
*ped	*	*	*	*
!LO:N:vis=2	!	!	!	!
4C#/	2.C#\	8ee\L	.	.
.	.	8eee\	.	.
4E/	.	8ccc#\	.	.
.	.	8gg#\	.	.
4G#/	.	8ff#\	.	.
.	.	8ee\J	.	.
=106	=106	=106	=106	=106
*	*^	*	*	*
4ryy	2.E/	2.C#\	8dd#\L	.	.
.	.	.	8cc#\	.	.
4G#/	.	.	8b#X\	.	.
.	.	.	8cc#\	.	.
4c#/	.	.	8dd#\	.	.
*Xped	*	*	*	*	*
.	.	.	8ee\J	.	.
!!LO:LB:g=original
=107	=107	=107	=107	=107	=107
4ryy	2.F#/	2.C#\	8dd#\L	.	.
.	.	.	8ee\	.	.
4A/	.	.	8aa\	.	.
.	.	.	8ff#\	.	.
4d#/	.	.	8ee\	.	.
.	.	.	8dd#\J	.	.
=108	=108	=108	=108	=108	=108
*ped	*	*	*	*	*
4ryy	2.G#/	2.C#\	8ddn\L	.	.
.	.	.	8cc#\	.	.
4c#/	.	.	8b#X\	.	.
.	.	.	8cc#\	.	.
*Xped	*	*	*	*	*
4e#X/	.	.	8gg#\	.	.
.	.	.	8bn\J	.	.
*v	*v	*v	*	*	*
=109	=109	=109	=109
*ped	*	*	*
4FF#/	8b\L	.	.
.	8a\	.	.
!	!	!	!LO:HP:t=crescendo sempre
4AA/	8g#\	.	<
.	8a\	.	.
4C#/	8cc#\	.	.
.	8ff#\J	.	.
=110	=110	=110	=110
4F#\	8aa\L	.	.
.	8b#X\	.	.
4A\	8cc#\	.	.
.	8ff#\	.	.
4c#\	8gg#\	.	.
*Xped	*	*	*
.	8aa\J	.	.
=111	=111	=111	=111
*ped	*	*	*
4B#X\	8aa\L	.	.
.	8gg#\	.	.
4f#\	8ff##X\	.	.
.	8gg#\	.	.
4d#\	8bb#X\	.	.
.	8ddd#\J	.	.
=112	=112	=112	=112
4B#X\	8ggg#\L	.	.
.	8ff##X\	.	.
4G#\	8gg#\	.	.
.	8bb#X\	.	.
4F#\	8ccc#\	.	.
*Xped	*	*	*
.	8ddd#\J	.	.
!!LO:LB:g=original
=113	=113	=113	=113
*	*^	*	*
8E\L	4ccc#\	4ryy	.	.
8D#\	.	.	.	.
8E\	4g#/	2c#\	.	f
8D#\	.	.	.	.
8E\	4f##X/	.	.	.
8D#\J	.	.	.	.
=114	=114	=114	=114	=114
8C#/L	4g#/	[2.e\	.	.
8BB#X/	.	.	.	.
8C#/	4ee/	.	.	.
8BB#/	.	.	.	.
8C#/	4dd#/	.	.	.
8BBn/J	.	.	.	.
=115	=115	=115	=115	=115
8AA#X/L	4cc#/	2.e\]	.	.
8GG##X/	.	.	.	.
8AA#/	4ee/	.	.	.
8GG##/	.	.	.	.
8AA#/	4dd#/	.	.	.
!LO:N:acc=n#	!	!	!	!
8GG#X/J	.	.	.	.
=116	=116	=116	=116	=116
8FF##X/L	(<4cc#/	4a#X\	.	.
8GG#/	.	.	.	.
8AA#X/	4ccc#/)	4ryy	.	.
8EE/	.	.	.	.
8DD#/	4f##X 4A#X/	4ryy	.	.
8CC#/J	.	.	.	.
*	*v	*v	*	*
=117	=117	=117	=117
*ped	*	*	*
8BBB/	8r	.	.
!	!LO:TX:b:Bi:t=dimi_nu_en_do:problem=dynamics with extention lines	!	!LO:HP:t=dimi_nu_en_do
8r	(8g#/L	.	>
4r	8a#X/	.	.
.	8g#/J	.	.
(8d#\L	8gg#'^^\)	.	.
*Xped	*	*	*
8G#\J	8r	.	.
=118	=118	=118	=118
*ped	*	*	*
8C#'^^/)	8r	.	.
8r	(8g#/L	.	.
4r	8a#X/	.	.
.	8g#/J	.	.
(8c#\L	8ee'^^\)	.	.
*Xped	*	*	*
8G#\J	8r	.	.
!!LO:LB:g=original
=119	=119	=119	=119
*ped	*	*	*
!LO:TX:a:t=P:problem=brak zakończenia łuku	!	!	!
8D#'^^\)	8r	.	.
8r	(8g#/L	.	.
4r	8a#X/	.	.
.	8g#/J	.	.
*Xped	*	*	*
(8e\L	8cc#'^^\)	.	.
8c#\J	8r	.	.
=120	=120	=120	=120
*ped	*	*	*
8D#'^^\)	8r	.	.
8r	(8f##X/L	.	]
4r	8g#/	.	.
.	8f##/J	.	.
*Xped	*	*	*
(8c#\L	8a#X'^^</)	.	.
8A#X\J	8r	.	.
=121	=121	=121	=121
*ped	*	*	*
8G#'^^\)	8r	.	.
8r	(8g#/L	.	pp
4r	8b#X/	.	.
.	8g#/J	.	.
(8d#\L	8gg#'^^\)	.	.
8B#X\J	8r	.	.
=122	=122	=122	=122
8G#'^^\)	8r	.	.
8r	(8b#X\L	.	.
4r	8dd#\	.	.
.	8b#\J	.	.
(8g#\L	8bb#X'^^\)	.	.
8d#\J	8r	.	.
=123	=123	=123	=123
8G#'^^\)	8r	.	.
8r	(8b\L	.	.
4r	8gg#\	.	.
.	8b\J	.	.
(>8b#X>\L	8ddd#'^^\)	.	.
8g#>\J	8ree	.	.
=124	=124	=124	=124
!	!LO:TX:b:i:t=rallentando.	!	!
8G#'^^\)	8r	.	.
8r	(>8gg#/L	.	.
4r	8bb#X/	.	.
.	8gg#/J	.	.
*Xped	*	*	*
4r>	4ggg#'>^^/)	.	.
!!LO:LB:g=original
=125:|!	=125:|!	=125:|!	=125:|!
*>D	*>D	*>D	*>D
*ped	*	*	*
8F#'^^\	8r	.	.
8r	(8cc#\L	.	.
4r	8ddn\	.	.
.	8cc#\J	.	.
*Xped	*	*	*
(8a\L	8aa'^^\)	.	.
8c#\J	8r	.	.
=126	=126	=126	=126
*ped	*	*	*
8F#'^^\)	8r	.	.
8r	(8b\L	.	.
4r	8cc#\	.	.
.	8b\J	.	.
(8e#X\L	8gg#'^^\)	.	.
*Xped	*	*	*
8dn\J	8r	.	.
=127	=127	=127	=127
*ped	*	*	*
8F#'^^\)	8r	.	.
8r	(8a/L	.	.
4r	8b/	.	.
.	8a/J	.	.
(8f#\L	8ff#'^^\)	.	.
*Xped	*	*	*
8c#\J	8r	.	.
=128	=128	=128	=128
*ped	*	*	*
8F#'^^\)	8r	.	.
8r	(<8a/L	.	.
4r	8b/	.	.
.	8a/J	.	.
(8a\L	8cc#'^^\)	.	.
*Xped	*	*	*
8c#\J	8r	.	.
=129	=129	=129	=129
*ped	*	*	*
8F#'^^\)	8r	.	.
8r	(8cc#\L	.	.
4r	8ddn\	.	.
.	8cc#\J	.	.
(8a\L	8aa'^^\)	.	.
*Xped	*	*	*
8c#\J	8r	.	.
=130	=130	=130	=130
*ped	*	*	*
8F#'^^\)	8r	.	.
8r	(8b\L	.	.
4r	8cc#\	.	.
.	8b\J	.	.
(8e#X\L	8gg#'^^\)	.	.
*Xped	*	*	*
8dn\J	8r	.	.
!!LO:PB:g=original
=131	=131	=131	=131
*ped	*	*	*
!LO:TX:a:t=P:problem=brak zakończenia łuku	!	!	!
8F#'^^\)	8r	.	.
8r	(8a#X/L	.	>
4r	8b/	.	.
.	8a#/J	.	.
(8f#\L	8ff#'^^\)	.	]
*Xped	*	*	*
8c#\J	8r	.	.
=132	=132	=132	=132
*ped	*	*	*
8F#'^^\)	8r	.	.
8r	(8a#X/L	.	.
4r	8b/	.	.
.	8a#/J	.	.
(8e\L	8cc#'^^\)	.	.
*Xped	*	*	*
8c#\J	8r	.	.
=133	=133	=133	=133
*ped	*	*	*
8F##X'^^\)	8r	.	.
8r	(8a#X/L	.	.
4r	8b/	.	.
.	8a#/J	.	.
(8e\L	8ee'^^\)	.	.
*Xped	*	*	*
8c#\J	8r	.	.
=134	=134	=134	=134
*ped	*	*	*
8G#'^^\)	8r	.	.
8r	(8g#/L	.	.
4r	8a#X/	.	.
.	8g#/J	.	.
(8e\L	8ee'^^\)	.	.
*Xped	*	*	*
8c#\J	8r	.	.
=135	=135	=135	=135
*ped	*	*	*
8An'^^\)	8r	.	.
8r	(8gn/L	.	.
4r	8an/	.	.
.	8g/J	.	.
(8e\L	8ee'^^\)	.	.
*Xped	*	*	*
8c#\J	8r	.	.
=136	=136	=136	=136
*ped	*	*	*
8B'^^\)	8r	.	.
8r	(8f#/L	.	.
4r	8gn/	.	.
.	8f#/J	.	.
8dn\L	8ddn'^^\)	.	.
*Xped	*	*	*
8c#\J	8r	.	.
!!LO:LB:g=original
=137	=137	=137	=137
*ped	*	*	*
8B'^^\	8r	.	.
8r	(8gn/L	.	.
4r	8a/	.	.
.	8g/J	.	.
!	!	!	!LO:HP:t=crescendo poco a poco e stringendo.
(8e\L	8ggn'^^\)	.	<
*Xped	*	*	*
8dn\J	8r	.	.
=138	=138	=138	=138
*ped	*	*	*
8B-X'^^\)	8r	.	.
8r	(8gn/L	.	.
4r	8a/	.	.
.	8g/J	.	.
(8e\L	8ggn'^^\)	.	.
*Xped	*	*	*
8dn\J	8r	.	.
=139	=139	=139	=139
*ped	*	*	*
8A'^^\)	8r	.	.
8r	(8gn/L	.	.
4r	8a/	.	.
.	8g/J	.	.
(8c#\L	8ee'^^\)	.	.
*Xped	*	*	*
8A\J	8r	.	.
=140	=140	=140	=140
*ped	*	*	*
8Dn'^^\)	8r	.	.
8r	(8f#/L	.	.
4r	8gn/	.	.
.	8f#/J	.	.
(8dn\L	8ff#'^^\)	.	.
*Xped	*	*	*
8A\J	8r	.	.
=141	=141	=141	=141
*ped	*	*	*
8BB'>^^/)	8r	.	.
8r	(8ddn\L	.	.
4r	8ee\	.	.
.	8dd\J	.	.
(>8b>\L	8dddn'^^\)	.	.
*Xped	*	*	*
8f#>\J	8rgg	.	.
=142	=142	=142	=142
*ped	*	*	*
8B'^^\)	8r	.	.
8r	(8ddn\L	.	.
4r	8ee\	.	.
.	8dd\J	.	.
(>8b>\L	8dddn'^^\)	.	.
*Xped	*	*	*
8e#X>\J	8rgg	.	.
!!LO:LB:g=original
=143	=143	=143	=143
*ped	*	*	*
8G#'^^\)	8r	.	.
8r	(8b\L	.	.
4r	8cc#\	.	.
.	8b\J	.	.
(8e#X\L	8gg#'^^\)	.	.
*Xped	*	*	*
8dn\J	8r	.	.
=144	=144	=144	=144
*ped	*	*	*
8F#'^^\)	8r	.	.
8r	(8a/L	.	.
4r	8b/	.	.
.	8a/J	.	.
(8f#\L	8aa'^^\)	.	.
*Xped	*	*	*
8dn\J	8r	.	.
=145	=145	=145	=145
*	*^	*	*
*ped	*	*	*	*
8EE#X\L)	4bb/	[2.b\	.	f
8GG#\	.	.	.	.
!	!LO:TX:b:i:t=brillante e con bravura.	!	!	!
8C#\	4gg#/	.	.	.
8E#X\	.	.	.	.
8G#\	4ff#/	.	.	.
8c#\J	.	.	.	.
=146	=146	=146	=146	=146
8g#\L	2.ee#X/	4b\]	.	.
8c#\	.	.	.	.
8G#\	.	4cc#\	.	.
8E#X\	.	.	.	.
8C#\	.	[4b\	.	.
*Xped	*	*	*	*
8GG#\J	.	.	.	.
=147	=147	=147	=147	=147
*ped	*	*	*	*
8FF#\L	2.ff#/	4b\]	.	.
8C#\	.	.	.	.
8F#\	.	4a\	.	.
8A\	.	.	.	.
8c#\	.	4cc#\	.	.
8f#\J	.	.	.	.
*	*v	*v	*	*
=148	=148	=148	=148
8a\L	4ff#\	.	.
8f#\	.	.	.
8c#\	4aa\	.	.
8A\	.	.	.
8F#\	4ccc#\	.	.
*Xped	*	*	*
8C#\J	.	.	.
!!LO:LB:g=original
=149	=149	=149	=149
*	*^	*	*
*ped	*	*	*	*
!LO:TX:t=P:problem=mixed beam	!	!	!	!
8BB#X/L	4fff#/	[2.ff#\	.	.
8D#/	.	.	.	.
8G#/	4ddd#/	.	.	.
8B#X/	.	.	.	.
8d#>\	4ccc#/	.	.	.
8g#>\J	.	.	.	.
=150	=150	=150	=150	=150
!LO:TX:t=P:problem=mixed beam	!	!	!	!
8dd#>\L	2.bb#X/	4ff#\]	.	.
8g#>\	.	.	.	.
8d#>\	.	4gg#\	.	.
8B#X/	.	.	.	.
8G#/	.	[>4ff#\	.	.
*Xped	*	*	*	*
8D#/J	.	.	.	.
=151	=151	=151	=151	=151
*ped	*	*	*	*
!LO:TX:t=P:problem=mixed beam	!	!	!	!
8C#/L	2ccc#/	4ff#\]	.	.
8G#/	.	.	.	.
8c#/	.	4ee\	.	.
8e/	.	.	.	.
8g#>\	4ryy	4gg#\	.	.
8cc#>\J	.	.	.	.
*	*v	*v	*	*
=152	=152	=152	=152
!LO:TX:t=P:problem=mixed beam	!	!	!
8ee>\L	4ccc#/	.	.
8cc#>\	.	.	.
8g#>\	4eee/	.	.
8e>\	.	.	.
8c#/	4ggg#/	.	.
*Xped	*	*	*
8G#/J	.	.	.
=153	=153	=153	=153
8A\L	[2.cc# [>2.f# [2.c#/	.	f
8G#\	.	.	.
8A\	.	.	.
8G#\	.	.	.
8A\	.	.	.
8G#\J	.	.	.
=154	=154	=154	=154
8A\L	2.cc#_ 2.f#_> 2.c#/_<	.	.
8F#\	.	.	.
8E\	.	.	.
8D#\	.	.	.
8C#\	.	.	.
8BB\J	.	.	.
!!LO:LB:g=original
=155	=155	=155	=155
*	*^	*	*
!	!LO:TX:a:t=P:problem=brak zakończenia ligatur	!	!	!
8AA/L	4cc#] 4c#/]	2f#\]	.	.
8GG#/	.	.	.	.
8FF#/	4b#X 4B#X/	.	.	.
8AA/	.	.	.	.
8FF#/	4cc# 4c#/	4ryy	.	.
8EE/J	.	.	.	.
=156	=156	=156	=156	=156
8DD#/L	2ff#/	[2.f#\	.	.
8FF#/	.	.	.	.
8DD#/	.	.	.	.
8CC#/	.	.	.	.
8BBB#X/	8dd#/L	.	.	.
8AAA#X/J	8cc#/J	.	.	.
*	*v	*v	*	*
=157	=157	=157	=157
*ped	*	*	*
!	!LO:TX:t=P:problem=mixed beam	!	!
8GGG#\L	8b#XL 8f#\]	.	.
8BBB#X\	8BB#X</	.	.
8DD#\	8D#</	.	.
8GG#\	8G#</	.	.
8BB#X\	8B#X</	.	.
8D#\J	8d#\J	.	.
=158	=158	=158	=158
!LO:TX:t=P:problem=mixed beam	!	!	!
8G#/L	8g#/L	.	.
8B#X/	8b#X/	.	.
8d#>\	8dd#/	.	.
8g#>\	8gg#/	.	.
8b#X>\	8bb#X/	.	.
*Xped	*	*	*
8dd#>\J	8ddd#/J	.	.
=159	=159	=159	=159
8gg#>\L	8ggg#/L	.	.
!	!LO:TX:b:i:t=legg.	!	!
8aa>\	8fff#/	.	.
8ff#>\	8ddd#/	.	.
8ee>\	8ccc#/	.	.
8dd#>\	8bb#X/	.	.
8ff#>\J	8ddd#/J	.	.
=160	=160	=160	=160
8dd#>\L	8bb#X/L	.	.
8b#X>\	8aa/	.	.
8a>\	8ff#/	.	.
8g#>\	8ee/	.	.
8f#>\	8dd#/	.	.
8e>\J	8cc#/J	.	.
!!LO:PB:g=original
=161	=161	=161	=161
8a>\L	[2.ccc# [2.ff# [2.cc#/	.	.
8g#>\	.	.	.
8a>\	.	.	.
8g#>\	.	.	.
8a>\	.	.	.
8g#>\J	.	.	.
=162	=162	=162	=162
!LO:TX:t=P:problem=mixed beam	!	!	!
8a>\L	2.ccc#_ 2.ff#_ 2.cc#/_	.	.
8f#>\	.	.	.
8e>\	.	.	.
8d#>\	.	.	.
8c#/	.	.	.
8B/J	.	.	.
=163	=163	=163	=163
8A\L	4ccc#] 4ff#] 4cc#\]	.	.
8G#\	.	.	.
8F#\	4bb#X 4b#X\	.	.
8A\	.	.	.
8F#\	4ccc# 4cc#\	.	.
8E\J	.	.	.
=164	=164	=164	=164
*	*^	*	*
8D#/L	2fff#/	[2.ff#\	.	.
8F#/	.	.	.	.
8D#/	.	.	.	.
8C#/	.	.	.	.
8BB#X/	8ddd#/L	.	.	.
8AA#X/J	8ccc#/J	.	.	.
=165	=165	=165	=165	=165
*ped	*	*	*	*
8GG#'>^^/	8bb#X/	8ff#\L]	.	.
8r	8ryy	8b#X\	.	.
4r	4ryy	8cc#\	.	.
.	.	8b#\J	.	.
(8f#\L	8gg#'^^\	4ryy	.	.
*Xped	*	*	*	*
8G#\J	8r	.	.	.
*	*v	*v	*	*
=166	=166	=166	=166
*ped	*	*	*
8C#'>^^/)	8r	.	.
8r	(8bn\L	.	.
4r	8cc#\	.	.
.	8b\J	.	.
(8e#X\L	8gg#'^^\)	.	.
*Xped	*	*	*
8G#\J	8r	.	.
=167	=167	=167	=167
*ped	*	*	*
8C#'>^^/)	8r	.	.
8r	(8a#X/L	.	.
4r	8b/	.	.
.	8a#/J	.	.
(8en\L	8ff#'^^\)	.	.
*Xped	*	*	*
8c#\J	8r	.	.
!!LO:LB:g=original
=168	=168	=168	=168
*ped	*	*	*
!LO:TX:a:t=P:problem=brak zakończenia łuku	!	!	!
8F#'^^\)	8r	.	.
8r	(8a#X/L	.	.
4r	8b/	.	.
.	8a#/J	.	.
*Xped	*	*	*
(8e\L	8ff#'^^\)	.	.
8c#\J	8r	.	.
=169	=169	=169	=169
*ped	*	*	*
8F##X'^^\)	8r	.	.
8r	(8a#X/L	.	.
4r	8b/	.	.
!	!LO:TX:b:Bi:t=cres_cen_do sempre piu:problem=dynamics with extention lines	!	!LO:HP:t=cres_cen_do sempre piu
.	8a#/J	.	<
*Xped	*	*	*
(8e\L	8ee'^^\)	.	.
8c#\J	8r	.	.
=170	=170	=170	=170
*ped	*	*	*
8G#'^^\)	8r	.	.
8r	(8g#/L	.	.
4r	8a#X/	.	.
.	8g#/J	.	.
*Xped	*	*	*
(8e\L	8ee'^^\)	.	.
8c#\J	8r	.	.
=171	=171	=171	=171
*ped	*	*	*
8A'^^\)	8r	.	.
8r	(8f#/L	.	.
4r	8g#/	.	.
.	8f#/J	.	.
(8d#\L	8ff#'^^\)	.	.
*Xped	*	*	*
8c#\J	8r	.	.
=172	=172	=172	=172
*ped	*	*	*
8F#'^^\)	8r	.	.
8r	(8a/L	.	.
4r	8b/	.	.
.	8a/J	.	.
*Xped	*	*	*
(8d#\L	8aa'^^\)	.	.
8c#\J	8r	.	.
=173	=173	=173	=173
*ped	*	*	*
8GG#'>^^/)	8r	.	.
8r	(8g#/L	.	.
4r	8cc#/	.	.
.	8g#/J	.	.
(8e\L	8gg#'^^\)	.	.
8c#\J	8r	.	[[
=174	=174	=174	=174
8GG#'>^^/)	8r	.	.
8r	(8cc#\L	.	.
4r	8ee\	.	.
.	8cc#\J	.	.
8e\L	8ccc#'^^\)	.	.
*Xped	*	*	*
8c#\J	8r	.	.
!!LO:LB:g=original
=175	=175	=175	=175
*ped	*	*	*
8GG#'>^^/	8r	.	.
8r	(8dd#\L	.	.
4r	8gg#\	.	.
.	8dd#\J	.	.
(8f#\L	8ddd#'^^\)	.	.
8c#\J	8r	.	.
=176	=176	=176	=176
8GG#'>^^/)	8r	.	.
8r	(8gg#\L	.	.
4r	8ddd#\	.	.
.	8gg#\J	.	.
N(8f#\L	8ggg#'^^\)	.	.
*Xped	*	*	*
8B#X\J	8r	.	.
=177	=177	=177	=177
*^	*^	*	*
*ped	*	*	*	*	*
!	!	!LO:TX:b:i:t=con tutta la farza.	!	!	!
!LO:N:vis=2	!	!LO:N:vis=2	!	!	!
8CC#^^>\L	2.CC#\	8C#</LN)	2.C#</	.	.
8GG#\	.	8G#</	.	.	.
8EE\	.	8E</	.	.	.
8GG#\	.	8G#</	.	.	.
8EE\	.	8E</	.	.	.
8GG#\J	.	8G#</J	.	.	.
=178	=178	=178	=178	=178	=178
!LO:N:vis=2	!	!LO:N:vis=2	!	!	!
8CC#^^>\L	2.CC#\	8E</L	2.E<^^/	.	.
8C#\	.	8c#</	.	.	.
8GG#\	.	8G#</	.	.	.
8C#\	.	8c#</	.	.	.
8GG#\	.	8G#</	.	.	.
*Xped	*	*	*	*	*
8C#\J	.	8c#</J	.	.	.
=179	=179	=179	=179	=179	=179
*ped	*	*	*	*	*
!LO:N:vis=2	!	!LO:N:vis=2	!	!	!
8CC#^^>\L	2.CC#\	8F#</L	2.F#<^^/	.	.
8C#\	.	8d#</	.	.	.
8AA\	.	8G#</	.	.	.
8C#\	.	8d#</	.	.	.
8AA\	.	8A</	.	.	.
*Xped	*	*	*	*	*
8C#\J	.	8d#</J	.	.	.
=180	=180	=180	=180	=180	=180
*ped	*	*	*	*	*
!	!	!LO:TX:t=P:problem=mixed beam	!	!	!
!LO:N:vis=2	!	!LO:N:vis=2	!	!	!
8BBB^^>\L	2.BBB\	8G#</L	2.G#<^^/	.	.
8BB\	.	8e#X\	.	.	.
8GG#\	.	8c#</	.	.	.
8BB\	.	8e#\	.	.	.
8GG#\	.	8c#</	.	.	.
*Xped	*	*	*	*	*
8BB\J	.	8e#\J	.	.	.
=181	=181	=181	=181	=181	=181
!	!	!LO:TX:t=P:problem=mixed beam	!	!	!
!LO:N:vis=2	!	!LO:N:vis=2	!	!	!
8AAA^^>\L	2.AAA\	8F#</L	2.F#<^^/	.	.
8AA\	.	8f#\	.	.	.
8FF#\	.	8c#</	.	.	.
8AA\	.	8f#\	.	.	.
8FF#\	.	8c#</	.	.	.
8AA\J	.	8f#\J	.	.	.
!!LO:LB:g=original
=182	=182	=182	=182	=182	=182
*ped	*	*	*	*	*
!LO:N:vis=2	!	!LO:N:vis=2	!	!	!
8GGG#^^/L	2.GGG#/	8B/L	2.B^^/	.	.
8GG#/	.	8b/	.	.	.
8CC#/	.	8e#X/	.	.	.
8GG#/	.	8b/	.	.	.
8CC#/	.	8e#/	.	.	.
*Xped	*	*	*	*	*
8GG#/J	.	8b/J	.	.	.
=183	=183	=183	=183	=183	=183
*ped	*	*	*	*	*
!LO:N:vis=2	!	!LO:N:vis=2	!	!	!
8FFF#^^/L	2.FFF#/	8A/L	2.A^^/	.	.
8FF#/	.	8a/	.	.	.
8CC#/	.	8f#/	.	.	.
8FF#/	.	8a/	.	.	.
8CC#/	.	8f#/	.	.	.
*Xped	*	*	*	*	*
8FF#/J	.	8a/J	.	.	.
=184	=184	=184	=184	=184	=184
*ped	*	*	*	*	*
!LO:N:vis=2	!	!LO:N:vis=2	!	!	!
8FFF#^^/L	2.FFF#/	8ddn^^\L	2.dd\	.	.
8FF#/	.	8dddn\	.	.	.
8DDn/	.	8aa\	.	.	.
8FF#/	.	8ddd\	.	.	.
8DD/	.	8aa\	.	.	.
*Xped	*	*	*	*	*
8FF#/J	.	8ddd\J	.	.	.
=185	=185	=185	=185	=185	=185
*ped	*	*	*	*	*
!LO:N:vis=2	!	!LO:N:vis=2	!	!	!
8GGG#^^/L	2.GGG#/	8cc#^^\L	2.cc#\	.	.
8GG#/	.	8ccc#\	.	.	.
8EE/	.	8gg#\	.	.	.
8GG#/	.	8ccc#\	.	.	.
8EE/	.	8gg#\	.	.	.
8GG#/J	.	8ccc#\J	.	.	.
=186	=186	=186	=186	=186	=186
!LO:N:vis=2	!	!LO:N:vis=2	!	!	!
8GGG#^^/L	2.GGG#/	8g#^^\L	2.g#\	.	.
8GG#/	.	8gg#\	.	.	.
8EE/	.	8cc#\	.	.	.
8GG#/	.	8gg#\	.	.	.
*Xped	*	*	*	*	*
8EE/	.	8cc#\	.	.	.
*ped	*	*	*	*	*
8GG#/J	.	8gg#\J	.	.	.
=187	=187	=187	=187	=187	=187
!LO:N:vis=2	!	!LO:N:vis=2	!	!	!
8GGG#^^/L	2.GGG#/	8a^^\L	2.a\	.	.
8GG#/	.	8aa\	.	.	.
8DD#/	.	8cc#\	.	.	.
8GG#/	.	8aa\	.	.	.
8DD#/	.	8cc#\	.	.	.
*Xped	*	*	*	*	*
8GG#/J	.	8aa\J	.	.	.
=188	=188	=188	=188	=188	=188
!LO:N:vis=2	!	!LO:N:vis=2	!	!	!
8GGG#^^/L	2.GGG#/	8B#X/L	2.B#^^/	.	.
8GG#/	.	8b#X/	.	.	.
8DD#/	.	8f#/	.	.	.
8GG#/	.	8b#/	.	.	.
8DD#/	.	8f#/	.	.	.
8GG#/J	.	8b#/J	.	.	.
!!LO:LB:g=original
=189	=189	=189	=189	=189	=189
*ped	*	*	*	*	*
!	!	!LO:TX:b:Bi:t=diminu_en_do:problem=dynamics with extention lines	!	!	!
!LO:N:vis=2	!	!LO:N:vis=2	!	!	!LO:HP:t=diminu_en_do
8GGG#^^/L	2.GGG#/	8c#^^/L	2.c#/	.	>
8GG#/	.	8cc#/	.	.	.
8CC#/	.	8e/	.	.	.
8GG#/	.	8cc#/	.	.	.
8CC#/	.	8e/	.	.	.
*Xped	*	*	*	*	*
8GG#/J	.	8cc#/J	.	.	.
=190	=190	=190	=190	=190	=190
*ped	*	*	*	*	*
!LO:N:vis=2	!	!LO:N:vis=2	!	!	!
8GGG#^^/L	2.GGG#/	8G#/L	2.G#/	.	.
8GG#/	.	8g#/	.	.	.
8EE/	.	8c#/	.	.	.
8GG#/	.	8g#/	.	.	.
8EE/	.	8c#/	.	.	.
*Xped	*	*	*	*	*
8GG#/J	.	8g#/J	.	.	.
=191	=191	=191	=191	=191	=191
*ped	*	*	*	*	*
!LO:N:vis=2	!	!LO:N:vis=2	!	!	!
8GGG#^^/L	2.GGG#/	8A/L	2.A/	.	.
8GG#/	.	8a/	.	.	.
8DD#/	.	8c#/	.	.	.
8GG#/	.	8a/	.	.	.
8DD#/	.	8c#/	.	.	.
*Xped	*	*	*	*	*
8GG#/J	.	8a/J	.	.	]]
=192	=192	=192	=192	=192	=192
!LO:N:vis=2	!	!LO:N:vis=2	!	!	!
8GGG#^^>\L	2.GGG#\	8BB#X<^^/L	2.BB#</	.	.
8GG#\	.	8B#X</	.	.	.
8DD#\	.	8F#</	.	.	.
8GG#\	.	8B#</	.	.	.
8DD#\	.	8F#</	.	.	.
*Xped	*	*	*	*	*
8GG#\J	.	8B#</J	.	.	.
*v	*v	*	*	*	*
*	*v	*v	*	*
=193	=193	=193	=193
*ped	*	*	*
2.GG# 2.EE\	2.c#< 2.E< 2.C#</	.	.
=194	=194	=194	=194
!!!OMD: Tempo I.
[2.GG# [2.EE/	[2.cc#\	.	.
=195	=195	=195	=195
!	!LO:TX:b:i:t=recitando	!	!
4GG#] 4EE/]	4cc#\]	.	.
*Xped	*	*	*
4r	(4b#X\	.	.
4r	4cc#\	.	.
=196	=196	=196	=196
2.r	4ee\	.	.
.	4dd#\	.	.
.	4cc#\)	.	.
=197	=197	=197	=197
*	*^	*	*
[2.d# [2.A\	2cc#/	[2.f#\	.	.
.	4b#X/	.	.	.
!!LO:PB:g=original
=198	=198	=198	=198	=198
!	!	!LO:TX:b:t=P:problem=brak zakończenia ligatury	!	!
4d#] 4A\]	[2.dd#/	4f#\]	.	.
4r	.	4r	.	.
4r	.	4r	.	.
*	*v	*v	*	*
=199	=199	=199	=199
2.r	4dd#\]	.	.
.	(4cc##X\	.	.
.	4dd#\	.	.
=200	=200	=200	=200
2.r	4ff#\	.	.
.	4ee\	.	.
.	4dd#\)	.	.
=201	=201	=201	=201
*	*^	*	*
[2.e#X [2.B\	2dd#/	[2.g#\	.	.
.	4cc##X/	.	.	.
=202	=202	=202	=202	=202
4e#] 4B\]	[2.ee#X/	4g#\]	.	.
4r	.	4r	.	.
4r	.	4r	.	.
*	*v	*v	*	*
=203	=203	=203	=203
2.r	4ee#\]	.	.
.	4dd#\	.	.
.	4ee#X\	.	.
=204	=204	=204	=204
2.r	4gg#\	.	.
.	4ff#\	.	.
.	4ee#X\	.	.
=205	=205	=205	=205
*^	*	*	*
4r	4ryy	8cc##X\L	.	.
.	.	8dd#\J	.	.
!	!	!LO:TX:b:i:t=espress.	!	!
[2c##X/	4A\	2aa#X^^\	.	.
.	4G#\	.	.	.
=206	=206	=206	=206	=206
*	*	*^	*	*
4c##/]	2.F#\	8aa/L	4ryy	.	.
.	.	8ee#X/	.	.	.
4d#/	.	8gg#/	2a#\	.	.
.	.	8ff#/	.	.	.
4f#/	.	8dd#/	.	.	.
.	.	8cc#/J	.	.	.
*	*	*v	*v	*	*
*v	*v	*	*	*
!!LO:LB:g=original
=207	=207	=207	=207
4r	8cc#\L	.	pp
.	8b#X\J	.	.
!	!LO:TX:b:i:t=rall.	!	!
4B#X 4G#\	[2gg#\	.	.
4c# 4A#X\	.	.	.
=208	=208	=208	=208
2.d# 2.B#X\	8gg#\L]	.	.
.	8ee#X\	.	.
.	8ff#\	.	.
.	8dd#\	.	.
.	8b#X\	.	.
.	8a#X\J	.	.
=209||	=209||	=209||	=209||
!!!OMD: Tempo de Valse.
!!!key: D-
*k[b-e-a-d-g-]	*k[b-e-a-d-g-]	*	*
*M3/4	*M3/4	*	*
.	(<8qaa-/	.	.
*ped	*	*	*
4D- 4DD-/	[2.a-^/)	.	p
4f 4A-\	.	.	.
4f 4A-\	.	.	.
=210	=210	=210	=210
*^	*	*	*
!LO:N:vis=2	!	!	!	!
4D-/	2.D-\	8a-\L]	.	.
.	.	8b-\	.	.
4f 4A-/	.	8cc\	.	.
.	.	8dd-\	.	.
*Xped	*	*	*	*
4f 4A-/	.	8ee-\	.	.
.	.	8ff\J	.	.
=211	=211	=211	=211	=211
*ped	*	*	*	*
!LO:N:vis=2	!	!	!	!
4E-/	2.E-\	(8ff\L	.	.
.	.	8ee-\J	.	.
4f 4c 4A-/	.	4aa-'\)	.	.
4f 4c 4A-/	.	(4gg-'\	.	.
=212	=212	=212	=212	=212
!LO:N:vis=2	!	!	!	!
4E-/	2.E-\	4ee-'\	.	.
4g- 4c 4A-/	.	4cc'\	.	.
*Xped	*	*	*	*
4g- 4c 4A-/	.	4b-'\)	.	.
=213	=213	=213	=213	=213
*ped	*	*	*	*
!LO:N:vis=2	!	!	!	!
4F/	2.F\	2a-/	.	.
4d- 4A-/	.	.	.	.
*Xped	*	*	*	*
!	!	!LO:TX:a:t=P:problem=brak początku łuku	!	!
!	!	!LO:TX:a:t=P:problem=brak początku ligatury	!	!
4d- 4A-/	.	([4ff\	.	.
!!LO:LB:g=original
=214	=214	=214	=214	=214
4d-/	2.G-\	4ff\]	.	.
4e-/	.	4ee-\	.	.
4f/	.	4dd-\)	.	.
=215	=215	=215	=215	=215
*	*	*^	*	*
4e-/	2A-\	4ryy	8dd-\L	.	.
.	.	.	[<8cc\J	.	.
[2g-/	.	[2bb-/	4cc\]	.	.
.	4B-\	.	4dd-\	.	.
=216	=216	=216	=216	=216	=216
4g-/]	2c\	4bb-/]	2.ee-\	.	.
4e-/	.	4aa-/	.	.	.
[>4a-/	4ryy	4gg-/	.	.	.
=217	=217	=217	=217	=217	=217
2.a-/]	4d-\	2ff/	4dd-\	.	.
.	4dn\	.	4cc-X\	.	.
.	4g- 4e-\	[4gg-/	4b-\	.	.
=218	=218	=218	=218	=218	=218
4dn/	2.G-\	4gg-/]	2b-\	.	.
4e-/	.	4b-/	.	.	.
4g-/	.	4ee-/	4b--\	.	.
=219	=219	=219	=219	=219	=219
*ped	*	*	*	*	*
8f/L	2A-\	4dd-/	[2.a-\	.	.
8e-/	.	.	.	.	.
8g-/	.	4cc/	.	.	.
8e-/	.	.	.	.	.
8c/	4ryy	4ee-/	.	.	.
8A-/J	.	.	.	.	.
*	*	*v	*v	*	*
*v	*v	*	*	*
=220	=220	=220	=220
8G-/L	2.aa- 2.a-]\	.	.
8E-/	.	.	.
8C/	.	.	.
8AA-/	.	.	.
8GG-/	.	.	.
*Xped	*	*	*
8EE-/J	.	.	.
=221	=221	=221	=221
.	(<8qaa-/	.	.
*ped	*	*	*
4D- 4DD-/	2.a-/)	.	f
4f 4A-\	.	.	.
4f 4A-\	.	.	.
!!LO:LB:g=original
=222	=222	=222	=222
*^	*	*	*
!LO:N:vis=2	!	!	!	!
4D-/	2.D-\	8a-\L	.	.
.	.	8b-\	.	.
4f 4A-/	.	8cc\	.	.
.	.	8dd-\	.	.
4f 4A-/	.	8ee-\	.	.
*Xped	*	*	*	*
.	.	8ff\J	.	.
=223	=223	=223	=223	=223
*ped	*	*	*	*
!LO:N:vis=2	!	!	!	!
4E-/	2.E-\	8ff\L	.	.
.	.	8ee-\J	.	.
4g- 4c 4A-/	.	4aa-'\	.	.
4g- 4c 4A-/	.	(4gg-'\	.	.
=224	=224	=224	=224	=224
!LO:N:vis=2	!	!	!	!
4E-/	2.E-\	4ee-'\	.	.
4g- 4c 4A-/	.	4cc'\	.	.
*Xped	*	*	*	*
4g- 4c 4A-/	.	4b-'\)	.	.
=225	=225	=225	=225	=225
*ped	*	*	*	*
4ryy/	2.F\	2a-/	.	.
4d- 4A-/	.	.	.	.
*Xped	*	*	*	*
4d- 4A-/	.	[4fff 4ff\	.	.
=226	=226	=226	=226	=226
4d-/	2.Gn\	4fff] 4ff\	.	.
4e-/	.	4.eee- 4.ee-\	.	.
4en/	.	.	.	.
.	.	8ddd- 8dd-\	.	.
=227	=227	=227	=227	=227
*	*	*^	*	*
4f/	4A-\	4dd-\	[2.ddd-/	.	.
4ryy	4a->\	4a-\	.	.	<
4ryy	4cc>\	4cc\	.	.	.
*	*	*v	*v	*	*
*v	*v	*	*	*
=228	=228	=228	=228
4dd->\	4ddd-/]	.	.
4ee->\	4ccc/	.	.
4een>\	4bb-/	.	[
=229	=229	=229	=229
*	*^	*	*
4ff>\	4aa-/	4ryy	.	.
!	!	!	!	!LO:DY:rj
4a- 4dn\	4ff/	4cc-X\	.	f
4g- 4e-\	[4gg-/	4b-\	.	.
=230	=230	=230	=230	=230
*^	*	*	*	*
!	!	!	!LO:N:vis=2.	!	!
4dn/	2.G-\	4gg-/]	2b-\	.	.
4e-/	.	4b-/	.	.	.
4g-/	.	4ee-/	4b--\	.	.
!!LO:LB:g=original
=231	=231	=231	=231	=231	=231
*ped	*	*	*	*	*
8f/L	2A-\	4dd-/	2a-\	.	.
8e-/	.	.	.	.	.
8g-/	.	4cc/	.	.	.
8e-/	.	.	.	.	.
8c/	4ryy	4aa-/	4ee- 4g-\	.	.
*Xped	*	*	*	*	*
8A-/J	.	.	.	.	.
*v	*v	*	*	*	*
*	*v	*v	*	*
=232	=232	=232	=232
4D-\	4dd- 4f/	.	.
4r	4r	.	.
4r	4r	.	.
=233	=233	=233	=233
*^	*^	*	*
*ped	*	*	*	*	*
2.d-/	[2.G-\	[2.dd-/	[2.b--\	.	.
=234	=234	=234	=234	=234	=234
2.g-/	2.G-\]	8dd-/L]	2.b--\]	.	.
.	.	8ee-/	.	.	.
.	.	8ff/	.	.	.
.	.	8gg-/	.	.	.
.	.	8ff/	.	.	.
*Xped	*	*	*	*	*
.	.	8ee-/J	.	.	.
*	*	*v	*v	*	*
*v	*v	*	*	*
=235	=235	=235	=235
(4e- 4G-\	[2.aa- [2.a-\	.	.
4d- 4F\	.	.	.
4c 4E-\)	.	.	.
=236	=236	=236	=236
4d- 4F\	4aa-] 4a-\]	.	.
4r	4r	.	.
4r	4aa-\	.	.
=237	=237	=237	=237
*^	*^	*	*
*ped	*	*	*	*	*
2.d-/	[2.G-\	2.dd-/	2.b--\	.	pp
=238	=238	=238	=238	=238	=238
2.g-/	2.G-\]	8dd-/L	2.b--y\	.	.
.	.	8ee-/	.	.	.
.	.	8ff-X/	.	.	.
.	.	8gg-/	.	.	.
.	.	8ff-/	.	.	.
*Xped	*	*	*	*	*
.	.	8ee-/J	.	.	.
*v	*v	*	*	*	*
*	*v	*v	*	*
=239	=239	=239	=239
(4e- 4G-\	[2.aa- [2.a-\	.	.
4d- 4F-X\	.	.	.
4c 4E-\)	.	.	.
=240	=240	=240	=240
4d- 4F-X\	4aa-] 4a-\]	.	.
4r	4r	.	.
4r	4aa-\	.	.
!!LO:PB:g=original
=241||	=241||	=241||	=241||
!!!key: c#
*k[f#c#g#d#]	*k[f#c#g#d#]	*	*
*^	*^	*	*
2.c#/	[2.F#\	[2.cc#/	2.a\	.	f
*	*	*v	*v	*	*
=242	=242	=242	=242	=242
[2.f#/	2.F#\]	8cc#\L]	.	.
.	.	8cc#\	.	.
.	.	8dd#\	.	.
.	.	8ee\	.	.
.	.	8dd#\	.	.
.	.	8cc#\J	.	.
=243	=243	=243	=243	=243
*	*	*^	*	*
8f#/]	8F#\L	[2.ff#/	2.a\	.	.
!	!	!LO:TX:b:i:t=con forza e ben marcata	!	!	!
8ryy	8D#\	.	.	.	.
2ryy	8E\	.	.	.	.
.	8F#\	.	.	.	.
.	8E\	.	.	.	.
.	8D#\J	.	.	.	.
*v	*v	*	*	*	*
=244	=244	=244	=244	=244
8C#/L	2.ff#/]	2a\	.	.
8BB#X/	.	.	.	.
8C#/	.	.	.	.
8D#/	.	.	.	.
8C#/	.	4g#\	.	.
8BB#/J	.	.	.	.
=245	=245	=245	=245	=245
*^	*	*	*	*
2c#/	2.C#\	[2.ee/	8g#\L	.	.
.	.	.	8g#\	.	.
.	.	.	8a\	.	.
.	.	.	8b\	.	.
4B/	.	.	8a\	.	.
.	.	.	8g#\J	.	.
=246	=246	=246	=246	=246	=246
[2.A/	[2.D#\	8ee/L]	2.f#\	.	.
.	.	8dd#/	.	.	.
.	.	8ee/	.	.	.
.	.	8ff#/	.	.	.
.	.	8ee/	.	.	.
.	.	8dd#/J	.	.	.
*v	*v	*	*	*	*
=247	=247	=247	=247	=247
8A]L 8D#\]	2.cc#/	4f#\	.	.
8G#\	.	.	.	.
8A\	.	4e\	.	.
8B\	.	.	.	.
8A\	.	[4dn\	.	.
8G#\J	.	.	.	.
!!LO:LB:g=original
=248	=248	=248	=248	=248
8F#\L	2.b/	4d\]	.	.
8E#X\	.	.	.	.
8F#\	.	4c#\	.	.
8G#\	.	.	.	.
8F#\	.	[4g#\	.	.
8E#\J	.	.	.	.
=249	=249	=249	=249	=249
4F#\	4a/	8g#\L]	.	.
.	.	8f#\	.	.
4E#X\	[2cc#/	8g#\	.	.
.	.	8b\	.	.
4En\	.	8a\	.	.
.	.	8g#\J	.	.
=250	=250	=250	=250	=250
2.A\	8cc#/L]	[2.f#\	.	.
.	8cc#/	.	.	.
.	8dd#/	.	.	.
.	8ee/	.	.	.
.	8dd#/	.	.	.
.	8cc#/J	.	.	.
=251	=251	=251	=251	=251
[2.G#\	2.b#X/	8f#\L]	.	.
.	.	8f#\	.	.
.	.	8g#\	.	.
.	.	8a\	.	.
.	.	8g#\	.	.
.	.	8f#\J	.	.
=252	=252	=252	=252	=252
8G#\L]	[2.dd#/	[2.f#\	.	.
8BB#X\	.	.	.	.
8C#\	.	.	.	.
8D#\	.	.	.	.
8C#\	.	.	.	.
[<8BB#\J	.	.	.	.
=253	=253	=253	=253	=253
*^	*	*	*	*
[2.A	2.BB#\_	8dd#/L]	4f#\]	.	.
.	.	8ff#/	.	.	.
.	.	8gg#/	4r	.	.
.	.	8aa/	.	.	.
.	.	8ff#/	4r	.	.
.	.	8ee/J	.	.	.
*	*	*v	*v	*	*
!!LO:LB:g=original
=254	=254	=254	=254	=254
!LO:TX:a:t=P:problem=brak zakończenia ligatury	!LO:TX:b:t=P:problem=brak zakończenia ligatury	!	!	!
2.A;]	2.BB#\]	2.dd#;\	.	.
*cue	*	*cue	*	*
12ryy	1ryy	12r	.	.
!	!	!LO:TX:b:i:t=Cadenza veloce legatissimo - ritenuto un poco:dur=14q:ext=cd:problem=text with extention lines	!	!
12ff#>\L	.	12ddd#/L	.	.
12dd#>\	.	12bb#X/	.	.
12cc#>\	.	12aa#X/	.	.
12b#y>\	.	12gg#/	.	.
12ff#>\J	.	12ddd#/J	.	.
12dd#>\L	.	12bb#/L	.	.
12cc#>\	.	12aa#/	.	.
12b#>\	.	12gg#/	.	.
12ff#>\	.	12ddd#/	.	.
12dd#>\	.	12bb#/	.	.
12cc#>\J	.	12aa#/J	.	.
12b#>\L	1ryy	12gg#/L	.	.
12ddn>\	.	12bbn/	.	.
12b#>\	.	12gg#/	.	.
12a#X>\	.	12ff#/	.	.
12g#>\	.	12ee#X/	.	.
12dd>\J	.	12bb/J	.	.
12b#>\L	.	12gg#/L	.	.
12a#>\	.	12ff#/	.	.
12g#>\	.	12ee#/	.	.
12dd>\	.	12bb/	.	.
12b#>\	.	12gg#/	.	.
12a#>\J	.	12ff#/J	.	.
12g#>\L	1ryy	12ee#X/L	.	.
12cc#>\	.	12aan/	.	.
12an>\	.	12ff#/	.	.
12g#>\	.	12ee#/	.	.
12f#>\	.	12dd#/	.	.
12cc#>\J	.	12aa/J	.	.
12a>\L	.	12ff#/L	.	.
12g#>\	.	12ee#/	.	.
12f#>\	.	12dd#/	.	.
12a>\	.	12ff#/	.	.
12f#>\	.	12dd#/	.	.
12e#X>\J	.	12cc#/J	.	.
12d#>\L	1ryy	12b#X/L	.	.
12a>\	.	12ff#/	.	.
12f#>\	.	12dd#/	.	.
12e#>\	.	12cc#/	.	.
12d#>\	.	12b#/	.	.
12a>\J	.	12ff#/J	.	.
12f#>\L	.	12dd#/L	.	.
12e#>\	.	12cc#/	.	.
12d#>\	.	12b#/	.	.
12a>\	.	12ff#/	.	.
12f#>\	.	12dd#/	.	.
12f##X>\J	.	12cc#/J	.	.
*Xcue	*	*Xcue	*	*
*v	*v	*	*	*
=255	=255	=255	=255
.	8qb#X/	.	.
[2.g#>\	[2.gg#/	.	.
=256	=256	=256	=256
4g#>\]	2.gg#;/]	.	.
4ra>	.	.	.
4ra>	.	.	.
!!LO:LB:g=original
=257||	=257||	=257||	=257||
!!!key: D-
*k[b-e-a-d-g-]	*k[b-e-a-d-g-]	*	*
.	(<8qaa-/	.	.
*ped	*	*	*
4D- 4DD-/	[2.a-/)	.	f
4f 4A-\	.	.	.
4f 4A-\	.	.	.
=258	=258	=258	=258
*^	*	*	*
!LO:N:vis=2	!	!	!	!
4D-/	2.D-\	8a-\L]	.	.
.	.	8b-\	.	.
4f 4A-/	.	8cc\	.	.
.	.	8dd-\	.	.
*Xped	*	*	*	*
4f 4A-/	.	8ee-\	.	.
.	.	8ff\J	.	.
=259	=259	=259	=259	=259
*ped	*	*	*	*
!LO:N:vis=2	!	!	!	!
4E-/	2.E-\	(8ff\L	.	.
!	!	!LO:TX:b:i:t=legierro	!	!
.	.	8ee-\J	.	.
4g- 4c 4A-/	.	4aa-'\)	.	.
4g- 4c 4A-/	.	(4gg-'\	.	.
=260	=260	=260	=260	=260
!LO:N:vis=2	!	!	!	!
4E-/	2.E-\	4ee-'\	.	.
4g- 4c 4A-/	.	4cc'\	.	.
*Xped	*	*	*	*
4g- 4c 4A-/	.	4b-'\)	.	.
=261	=261	=261	=261	=261
*ped	*	*	*	*
!LO:N:vis=2	!	!	!	!
4F/	2.F\	2a-/	.	.
4d- 4A-/	.	.	.	.
*Xped	*	*	*	*
4d- 4A-/	.	[4fff [4ff\	.	.
=262	=262	=262	=262	=262
4d-/	2.Gn\	4fff] 4ff\]	.	.
4e-/	.	4.eee- 4.ee-\	.	.
4en/	.	.	.	.
.	.	8ddd- 8dd-\	.	.
=263	=263	=263	=263	=263
*	*	*^	*	*
(<4f/	4A-\	[2.ddd-/	4dd-\	.	.
4a->\	4ryy	.	2ryy	.	<
4cc>\	4ryy	.	.	.	.
*	*	*v	*v	*	*
*v	*v	*	*	*
=264	=264	=264	=264
4dd->\	(4ddd-/]	.	.
4ee->\	4ccc/	.	.
4een>\)	4bb-/)	.	[
=265	=265	=265	=265
*	*^	*	*
4ff>\	4aa-/	4ryy	.	pp
[2A-\	(4cc/	(4g-\	.	.
.	4b-/	4f\	.	.
=266	=266	=266	=266	=266
2.A-\]	4ee-/	4e-\	.	.
.	4ff/)	4d-\	.	.
.	4gg-/	4c\)	.	.
*	*v	*v	*	*
!!LO:LB:g=original
=267	=267	=267	=267
*^	*	*	*
*ped	*	*	*	*
!LO:N:vis=2	!	!LO:TX:b:i:t=espress	!	!
4A-/	2.A-\	2.ff\	.	.
4f 4dn 4B-/	.	.	.	.
*Xped	*	*	*	*
4f 4d 4B-/	.	.	.	.
=268	=268	=268	=268	=268
*ped	*	*	*	*
!LO:N:vis=2	!	!	!	!
4Gn/	2.G\	2.bb- 2.b-\	.	.
4e- 4d- 4B-/	.	.	.	.
*Xped	*	*	*	*
4e- 4d- 4B-/	.	.	.	.
=269	=269	=269	=269	=269
*ped	*	*	*	*
!LO:N:vis=2	!	!	!	!
4G-X/	2.G-\	2.ee-\	.	.
4e- 4c 4A-/	.	.	.	.
*Xped	*	*	*	*
4e- 4c 4A-/	.	.	.	.
=270	=270	=270	=270	=270
*ped	*	*	*	*
!LO:N:vis=2	!	!	!	!
4F/	2.F\	[2.aa- 2.a-\	.	.
4d- 4c-X 4A-/	.	.	.	.
*Xped	*	*	*	*
4d- 4c- 4A-/	.	.	.	.
=271	=271	=271	=271	=271
*	*	*^	*	*
4dn/	2.E-\	4aa-/]	[2.b-\	.	.
4B-/	.	4ff/	.	.	.
[4e-/	.	4gg-/	.	.	.
=272	=272	=272	=272	=272	=272
4e-/]	2.A-\	4gg-/	4b-\]	.	.
4a-/	.	4cc/	2a-\	.	.
4g-/	.	4ee-/	.	.	.
=273	=273	=273	=273	=273	=273
*ped	*	*	*	*	*
!LO:N:vis=2	!	!LO:N:vis=2	!	!	!
8DD-^^>\L	2.DD-\	8D-<^^/L	2.D-</	.	pp
8AA-\	.	8A-</	.	.	.
8FF\	.	8F</	.	.	.
8AA-\	.	8A-</	.	.	.
8FF\	.	8F</	.	.	.
8AA-\J	.	8A-</J	.	.	.
=274	=274	=274	=274	=274	=274
!LO:N:vis=2	!	!LO:N:vis=2	!	!	!
8DD-^^\L	2.DD-\	8F<^^/L	2.F</	.	.
8D-\	.	8d-</	.	.	.
8AA-\	.	8A-</	.	.	.
8D-\	.	8d-</	.	.	.
8AA-\	.	8A-</	.	.	.
*Xped	*	*	*	*	*
8D-\J	.	8d-</J	.	.	.
=275	=275	=275	=275	=275	=275
*ped	*	*	*	*	*
!	!	!LO:TX:t=P:problem=mixed beam	!	!	!
!LO:N:vis=2	!	!LO:N:vis=2	!	!	!
8DD-^^\L	2.DD-\	8G-<^^/L	2.G-</	.	.
8D-\	.	8e-\	.	.	.
8BB-\	.	8B-</	.	.	.
8D-\	.	8e-\	.	.	.
8BB-\	.	8B-</	.	.	.
8D-\J	.	8e-\J	.	.	.
!!LO:PB:g=original
=276	=276	=276	=276	=276	=276
!LO:N:vis=2	!	!LO:N:vis=2	!	!	!LO:HP:t=crescendo sempre
8DD-/L	2.DD-^^/	8B-/L	2.B-^^/	.	<
8D-/	.	8b-/	.	.	.
8BB-/	.	8e-/	.	.	.
8D-/	.	8b-/	.	.	.
8BB-/	.	8e-/	.	.	.
*	*	*Xped	*	*	*
8D-/J	.	8b-/J	.	.	.
=277	=277	=277	=277	=277	=277
*	*	*ped	*	*	*
!LO:N:vis=2	!	!LO:N:vis=2	!	!	!
8CC/L	2.CC^^/	8A-/L	2.A-^^/	.	.
8C/	.	8a-/	.	.	.
8AA-/	.	8e-/	.	.	.
8C/	.	8a-/	.	.	.
8AA-/	.	8e-/	.	.	.
8C/J	.	8a-/J	.	.	.
=278	=278	=278	=278	=278	=278
!LO:N:vis=2	!	!LO:N:vis=2	!	!	!
8CC/L	2.CC^^/	8e-^^\L	2.e-\	.	.
8C/	.	8ee-\	.	.	.
8AA-/	.	8a-\	.	.	.
8C/	.	8ee-\	.	.	.
8AA-/	.	8a-\	.	.	.
*	*	*Xped	*	*	*
8C/J	.	8ee-\J	.	.	.
=279	=279	=279	=279	=279	=279
*	*	*ped	*	*	*
!LO:N:vis=2	!	!LO:N:vis=2	!	!	!
8DD-/L	2.DD-^^/	8f^^\L	2.f\	.	.
8D-/	.	8ff\	.	.	.
8AA-/	.	8ee-\	.	.	.
8D-/	.	8ff\	.	.	.
8AA-/	.	8ee-\	.	.	.
*	*	*Xped	*	*	*
8D-/J	.	8ff\J	.	.	.
=280	=280	=280	=280	=280	=280
*	*	*ped	*	*	*
!LO:N:vis=2	!	!LO:N:vis=2	!	!	!
8BBB-/L	2.BBB-^^/	8f^^\L	2.f\	.	.
8BB-/	.	8ff\	.	.	.
8FF/	.	8dd-\	.	.	.
8BB-/	.	8ff\	.	.	.
8FF/	.	8dd-\	.	.	.
*	*	*Xped	*	*	*
8BB-/J	.	8ff\J	.	.	.
=281	=281	=281	=281	=281	=281
*ped	*	*	*	*	*
!LO:N:vis=2	!	!LO:N:vis=2	!	!	!
8GGGn/L	2.GGG^^/	8e-^^/L	2.e-/	.	.
8GGn/	.	8ee-/	.	.	.
8EE-/	.	8b-/	.	.	.
8GG/	.	8ee-/	.	.	.
8EE-/	.	8b-/	.	.	.
8GG/J	.	8ee-/J	.	.	.
=282	=282	=282	=282	=282	=282
!LO:N:vis=2	!	!LO:N:vis=2	!	!	!
8GGGn/L	2.GGG^^/	8ee-^^\L	2.ee-\	.	.
8GGn/	.	8eee-\	.	.	.
8EE-/	.	8bb-\	.	.	.
8GG/	.	8eee-\	.	.	.
8EE-/	.	8bb-\	.	.	.
*Xped	*	*	*	*	*
8GG/J	.	8eee-\J	.	.	.
!!LO:LB:g=original
=283	=283	=283	=283	=283	=283
*ped	*	*	*	*	*
!LO:N:vis=2	!	!LO:N:vis=2	!	!	!
8AAA-/L	2.AAA-^^/	8dd-^^\L	2.dd-\	.	.
8AA-/	.	8ddd-\	.	.	.
8FF/	.	8aa-\	.	.	.
8AA-/	.	8ddd-\	.	.	.
8FF/	.	8aa-\	.	.	.
8AA-/J	.	8ddd-\J	.	.	.
=284	=284	=284	=284	=284	=284
!LO:N:vis=2	!	!LO:N:vis=2	!	!	!
8AAA-/L	2.AAA-^^/	8a-^^\L	2.a-\	.	.
8AA-/	.	8aa-\	.	.	.
8FF/	.	8dd-\	.	.	.
8AA-/	.	8aa-\	.	.	.
*Xped	*	*	*	*	*
8FF/	.	8dd-\	.	.	.
*ped	*	*	*	*	*
8AA-/J	.	8aa-\J	.	.	.
=285	=285	=285	=285	=285	=285
!LO:N:vis=2	!	!LO:N:vis=2	!	!	!
8AAA-/L	2.AAA-^^/	8b-^^\L	2.b-\	.	.
8AA-/	.	8bb-\	.	.	.
8EE-/	.	8dd-\	.	.	.
8AA-/	.	8bb-\	.	.	.
8EE-/	.	8dd-\	.	.	.
*Xped	*	*	*	*	*
8AA-/J	.	8bb-\J	.	.	.
=286	=286	=286	=286	=286	=286
*ped	*	*	*	*	*
!LO:N:vis=2	!	!LO:N:vis=2	!	!	!
8AAAn/L	2.AAA^^/	8g-^^\L	2.g-\	.	.
8AAn/	.	8gg-\	.	.	.
8EE-/	.	8cc\	.	.	.
8AA/	.	8gg-\	.	.	.
8EE-/	.	8cc\	.	.	.
*Xped	*	*	*	*	*
8AA/J	.	8gg-\J	.	.	.
=287	=287	=287	=287	=287	=287
*ped	*	*	*	*	*
!LO:N:vis=2	!	!LO:N:vis=2	!	!	!
8BBB-/L	2.BBB-^^/	8f^^\L	2.f\	.	.
8BB-/	.	8ff\	.	.	.
8DD-/	.	8dd-\	.	.	.
8BB-/	.	8ff\	.	.	.
8DD-/	.	8dd-\	.	.	.
8BB-/J	.	8ff\J	.	.	.
=288	=288	=288	=288	=288	=288
!LO:N:vis=2	!	!LO:N:vis=2	!	!	!
8BBB-/L	2.BBB-^^/	8d-^^/L	2.d-/	.	.
8BB-/	.	8dd-/	.	.	.
8FF/	.	8f/	.	.	.
8BB-/	.	8dd-/	.	.	.
8FF/	.	8f/	.	.	.
*Xped	*	*	*	*	*
8BB-/J	.	8dd-/J	.	.	.
=289	=289	=289	=289	=289	=289
*ped	*	*	*	*	*
!	!	!LO:TX:b:Bi:t=dimi_nu_en_do:problem=dynamics with extention lines	!	!	!
!LO:N:vis=2	!	!LO:N:vis=2	!	!	!LO:HP:t=dimi_nu_en_do
8GGGn/L	2.GGG^^/	8B-/L	2.B-^^/	.	>
8GGn/	.	8b-/	.	.	.
8EE-/	.	8e-/	.	.	.
8GG/	.	8b-/	.	.	.
8EE-/	.	8e-/	.	.	.
8GG/J	.	8b-/J	.	.	.
!!LO:LB:g=original
=290	=290	=290	=290	=290	=290
!LO:N:vis=2	!	!LO:N:vis=2	!	!	!
8GGGn/L	2.GGG^^/	8e-/L	2.e-^^/	.	.
8GGn/	.	8ee-/	.	.	.
8EE-/	.	8b-/	.	.	.
8GG/	.	8ee-/	.	.	.
8EE-/	.	8b-/	.	.	.
*Xped	*	*	*	*	*
8GG/J	.	8ee-/J	.	.	.
=291	=291	=291	=291	=291	=291
*ped	*	*	*	*	*
!LO:N:vis=2	!	!LO:N:vis=2	!	!	!
8AAA-/L	2.AAA-^^/	8d-/L	2.d-^^/	.	.
8AA-/	.	8dd-/	.	.	.
8FF/	.	8a-/	.	.	.
8AA-/	.	8dd-/	.	.	.
8FF/	.	8a-/	.	.	.
8AA-/J	.	8dd-/J	.	.	.
=292	=292	=292	=292	=292	=292
!LO:N:vis=2	!	!LO:N:vis=2	!	!	!
8AAA-/L	2.AAA-^^/	8B-/L	2.B-^^/	.	.
8AA-/	.	8a-/	.	.	.
8FF/	.	8d-/	.	.	.
8AA-/	.	8a-/	.	.	.
8FF/	.	8d-/	.	.	.
*Xped	*	*	*	*	*
8AA-/J	.	8a-/J	.	.	]]
=293	=293	=293	=293	=293	=293
*ped	*	*	*	*	*
!LO:N:vis=2	!	!LO:N:vis=2	!	!	!
8AAA-/L	2.AAA-^^/	8B-/L	2.B-^^/	.	.
8AA-/	.	8b-/	.	.	.
8FF/	.	8d-/	.	.	.
8AA-/	.	8b-/	.	.	.
8FF/	.	8d-/	.	.	.
*Xped	*	*	*	*	*
8AA-/J	.	8b-/J	.	.	.
=294	=294	=294	=294	=294	=294
*ped	*	*	*	*	*
!LO:N:vis=2	!	!LO:N:vis=2	!	!	!
8AAA-\L	2.AAA-^^\	8C</L	2.C</	.	.
8AA-\	.	8c</	.	.	.
8EE-\	.	8G-</	.	.	.
8AA-\	.	8c</	.	.	.
*Xped	*	*	*	*	*
8EE-\	.	8G-</	.	.	.
*ped	*	*	*	*	*
8AA-\J	.	8c</J	.	.	.
*	*	*v	*v	*	*
=295	=295	=295	=295	=295
!LO:N:vis=2	!	!	!	!
8DD-\L	2.DD-^^\	4d-< 4F</	.	.
*ped	*	*	*	*
8D-\	.	.	.	pp
8AA-\	.	4r	.	.
8D-\	.	.	.	.
8AA-\	.	4r	.	.
8D-\J	.	.	.	.
=296	=296	=296	=296	=296
!LO:N:vis=2	!	!	!	!
8DD-\L	2.DD-^^\	2.f 2.d- 2.F</	.	.
8D-\	.	.	.	.
8AA-\	.	.	.	.
8D-\	.	.	.	.
8AA-\	.	.	.	.
*Xped	*	*	*	*
8D-\J	.	.	.	.
!!LO:LB:g=original
=297	=297	=297	=297	=297
*ped	*	*	*	*
!LO:N:vis=2	!	!	!	!
8DD-^^>\L	2.DD-\	(>2.g- [>2.G-</	.	.
!	!	!LO:TX:b:i:t=espress.	!	!
8D-\	.	.	.	.
8BB--\	.	.	.	.
8D-\	.	.	.	.
8BB--\	.	.	.	.
8D-\J	.	.	.	.
=298	=298	=298	=298	=298
*	*	*^	*	*
!LO:N:vis=2	!	!	!	!	!
8DD-^^>\L	2.DD-\	(4e-/)	2.G-</]	.	.
8D-\	.	.	.	.	.
8BB--\	.	4f/	.	.	.
8D-\	.	.	.	.	.
8BB--\	.	4e-/)	.	.	.
*Xped	*	*	*	*	*
8D-\J	.	.	.	.	.
*	*	*v	*v	*	*
=299	=299	=299	=299	=299
*ped	*	*	*	*
!LO:N:vis=2	!	!	!	!
8DD-^^>\L	2.DD-\	2.a-: 2.d-<: 2.F<:/	.	.
8D-\	.	.	.	.
8AA-\	.	.	.	.
8D-\	.	.	.	.
8AA-\	.	.	.	.
8D-\J	.	.	.	.
=300	=300	=300	=300	=300
!LO:N:vis=2	!	!	!	!
8DD-^^>\L	2.DD-\	2.d-< 2.F</	.	.
8D-\	.	.	.	.
8AA-\	.	.	.	.
8D-\	.	.	.	.
8AA-\	.	.	.	.
*Xped	*	*	*	*
8D-\J	.	.	.	.
=301	=301	=301	=301	=301
*ped	*	*	*	*
!LO:N:vis=2	!	!	!	!LO:DY:b=2:rj
8DD-^^>\L	2.DD-\	(>2.g- [>2.G-</	.	pp
8D-\	.	.	.	.
8BB--\	.	.	.	.
8D-\	.	.	.	.
8BB--\	.	.	.	.
8D-\J	.	.	.	.
=302	=302	=302	=302	=302
*	*	*^	*	*
!LO:N:vis=2	!	!	!	!	!
8DD-^^>\L	2.DD-\	4e-/)	2.G-</]	.	.
8D-\	.	.	.	.	.
8BB--\	.	4f/	.	.	.
8D-\	.	.	.	.	.
8BB--\	.	4e-/	.	.	.
*Xped	*	*	*	*	*
8D-\J	.	.	.	.	.
*	*	*v	*v	*	*
!!LO:LB:g=original
=303	=303	=303	=303	=303
*ped	*	*	*	*
!LO:N:vis=2	!	!	!	!
8DD-^^>\L	2.DD-\	2.a-: 2.d-<: 2.F<:/	.	.
!	!	!LO:TX:b:i:t=mo_ren_do:dur=11qe:ext=ud:problem=text with extention lines	!	!
8D-\	.	.	.	.
8AA-\	.	.	.	.
8D-\	.	.	.	.
8AA-\	.	.	.	.
*Xped	*	*	*	*
8D-\J	.	.	.	.
=304	=304	=304	=304	=304
*	*	*^	*	*
*ped	*	*	*	*	*
!LO:N:vis=2	!	!	!	!	!
8DD-^^>\L	2.DD-\	4e-/	2.G-<	.	.
8D-\	.	.	.	.	.
8BB--\	.	4f/	.	.	.
8D-\	.	.	.	.	.
*Xped	*	*	*	*	*
8BB--\	.	4e-/	.	.	.
*ped	*	*	*	*	*
8D-\J	.	.	.	.	.
*	*	*v	*v	*	*
=305	=305	=305	=305	=305
!LO:N:vis=2	!	!	!	!
8DD-^^>\L	2.DD-\	2.a-: 2.d-<: 2.F<:/	.	.
8D-\	.	.	.	.
8AA-\	.	.	.	.
8D-\	.	.	.	.
8AA-\	.	.	.	.
*Xped	*	*	*	*
8D-\J	.	.	.	.
=306	=306	=306	=306	=306
*	*	*^	*	*
*ped	*	*	*	*	*
!LO:N:vis=2	!	!	!	!	!
8DD-^^>\L	2.DD-\	4e-/	2.G-<	.	.
8D-\	.	.	.	.	.
8BB--\	.	4f/	.	.	.
8D-\	.	.	.	.	.
*Xped	*	*	*	*	*
8BB--\	.	4e-/	.	.	.
*ped	*	*	*	*	*
8D-\J	.	.	.	.	.
*	*	*v	*v	*	*
=307	=307	=307	=307	=307
!LO:N:vis=2	!	!	!	!
8DD-^^>\L	2.DD-\	2.a-: 2.d-<: 2.F<:/	.	.
8D-\	.	.	.	.
8AA-\	.	.	.	.
8D-\	.	.	.	.
8AA-\	.	.	.	.
8D-\J	.	.	.	.
=308	=308	=308	=308	=308
!LO:N:vis=2	!	!	!	!
8DD-^^>\L	2.DD-\	2.A-< 2.F</	.	.
8D-\	.	.	.	.
8AA-\	.	.	.	.
8D-\	.	.	.	.
8AA-\	.	.	.	.
8D-\J	.	.	.	.
*v	*v	*	*	*
=309	=309	=309	=309
[2.AA- [2.DD-\	[2.F< [2.D-</	.	.
=310	=310	=310	=310
2.AA-] 2.DD-\]	2.F<] 2.D-</]	.	.
*Xped	*	*	*
==	==	==	==
*-	*-	*-	*-
!!!system-decoration: {(*)}
!!!RDF**kern: > = above
!!!RDF**kern: < = below
!!!RDF**kern: N = linked
!!!ENC: Anastazja Marusiak
!!!END: 2022-03-18
!!!AIN: 1 piano
!!!ENC: Andrzej Kubiczek
!!!END: 2022-03-25
